%
(Header)
(Generated by gcodetools from Inkscape.)
(Using default header. To add your own header create file "header" in the output dir.)
M3
(Header end.)
G21 (All units in mm)

(Start cutting path id: path23)
(Change tool to Default tool)

G00 Z0.100000
G00 X24.693399 Y33.769043

G01 Z-1.000000 F100.0(Penetrate)
G02 X24.887732 Y34.254056 Z-1.000000 I1.554569 J-0.341440 F200.000000
G02 X25.044219 Y34.346450 Z-1.000000 I0.164549 J-0.099977
G03 X25.085481 Y34.423951 Z-1.000000 I-0.002135 J0.050871
G03 X24.745533 Y34.833222 Z-1.000000 I-1.593642 J-0.977889
G02 X23.908599 Y35.996429 Z-1.000000 I2.281127 J2.523976
G02 X23.606796 Y37.442518 Z-1.000000 I3.313564 J1.446090
G02 X23.715236 Y38.369139 Z-1.000000 I4.013217 J-0.000000
G02 X23.968158 Y38.965305 Z-1.000000 I1.881495 J-0.446487
G02 X24.095750 Y38.987468 Z-1.000000 I0.073944 J-0.047341
G02 X25.223871 Y37.996066 Z-1.000000 I-7.215178 J-9.347740
G01 X26.368463 Y36.853264 Z-1.000000
G01 X26.527136 Y37.011938 Z-1.000000
G01 X26.685810 Y37.170609 Z-1.000000
G01 X25.612999 Y38.235063 Z-1.000000
G03 X23.970144 Y39.732784 Z-1.000000 I-18.527292 J-18.672765
G03 X23.270775 Y40.195706 Z-1.000000 I-2.403152 J-2.870854
G02 X23.061988 Y40.330767 Z-1.000000 I0.557177 J1.090235
G02 X22.765025 Y40.601274 Z-1.000000 I1.998800 J2.492550
G01 X22.483288 Y40.892352 Z-1.000000
G01 X22.821028 Y41.208909 Z-1.000000
G03 X23.082918 Y41.610715 Z-1.000000 I-0.689526 J0.735671
G03 X23.078190 Y41.941742 Z-1.000000 I-0.453309 J0.159073
G02 X22.935913 Y42.476890 Z-1.000000 I2.438906 J0.934905
G02 X22.738989 Y44.131913 Z-1.000000 I23.384567 J3.621654
G01 X22.689269 Y44.728108 Z-1.000000
G01 X23.197473 Y44.728108 Z-1.000000
G02 X24.083642 Y44.594477 Z-1.000000 I0.000000 J-3.005116
G02 X24.884453 Y44.207490 Z-1.000000 I-0.872830 J-2.828263
G02 X25.515978 Y43.645653 Z-1.000000 I-1.900222 J-2.771763
G02 X25.978024 Y42.954666 Z-1.000000 I-2.448327 J-2.137110
G03 X26.152416 Y42.798803 Z-1.000000 I0.282144 J0.140193
G03 X26.644814 Y42.711983 Z-1.000000 I0.492397 J1.352898
G01 X27.191019 Y42.711983 Z-1.000000
G01 X27.191019 Y39.986481 Z-1.000000
G01 X27.191019 Y37.260979 Z-1.000000
G01 X27.373533 Y37.260979 Z-1.000000
G02 X27.542134 Y37.223749 Z-1.000000 I-0.000000 J-0.400377
G02 X27.765557 Y37.078971 Z-1.000000 I-0.400848 J-0.863379
G01 X27.975067 Y36.896963 Z-1.000000
G01 X27.583043 Y36.497921 Z-1.000000
G01 X27.191019 Y36.098875 Z-1.000000
G01 X27.191019 Y34.962488 Z-1.000000
G02 X27.124283 Y33.892833 Z-1.000000 I-8.605778 J0.000000
G02 X27.048666 Y33.826097 Z-1.000000 I-0.075617 J0.009472
G03 X26.963879 Y33.781650 Z-1.000000 I0.000000 J-0.103094
G03 X26.945369 Y33.676757 Z-1.000000 I0.104965 J-0.072603
G02 X26.892613 Y33.598301 Z-1.000000 I-0.060995 J-0.015950
G02 X25.812375 Y33.527413 Z-1.000000 I-1.080238 J8.195220
G01 X24.640328 Y33.527413 Z-1.000000
G01 X24.693399 Y33.769043 Z-1.000000
G00 Z0.100000

(End cutting path id: path23)


(Start cutting path id: path31)
(Change tool to Default tool)

G00 Z0.100000
G00 X24.648970 Y33.774468

G01 Z-1.000000 F100.0(Penetrate)
G02 X24.870862 Y34.329021 Z-1.000000 I1.842407 J-0.415529 F200.000000
G02 X25.037478 Y34.423469 Z-1.000000 I0.166615 J-0.099740
G01 X25.048532 Y34.447278 Z-1.000000
G03 X24.706326 Y34.815492 Z-1.000000 I-4.053692 J-3.424237
G02 X23.685771 Y36.660680 Z-1.000000 I2.570466 J2.626523
G02 X23.839721 Y38.798416 Z-1.000000 I3.710038 J0.807231
G02 X24.014079 Y39.167918 Z-1.000000 I2.311492 J-0.864840
G01 X24.064096 Y39.186894 Z-1.000000
G02 X24.125839 Y39.149676 Z-1.000000 I-0.051956 J-0.156016
G02 X25.253586 Y38.048472 Z-1.000000 I-54.400197 J-56.839537
G03 X26.372714 Y37.039649 Z-1.000000 I10.660309 J10.700739
G03 X26.484690 Y37.045347 Z-1.000000 I0.052833 J0.064840
G03 X26.498575 Y37.159118 Z-1.000000 I-0.065757 J0.065758
G03 X26.082114 Y37.713130 Z-1.000000 I-2.912277 J-1.755675
G03 X24.494677 Y39.261995 Z-1.000000 I-15.961938 J-14.771528
G03 X23.434553 Y40.045019 Z-1.000000 I-5.075926 J-5.763059
G02 X22.581399 Y40.679466 Z-1.000000 I3.121711 J5.088683
G02 X22.486727 Y40.890837 Z-1.000000 I0.188623 J0.211371
G02 X22.515744 Y40.968735 Z-1.000000 I0.119070 J0.000000
G02 X22.816750 Y41.272350 Z-1.000000 I2.382017 J-2.060532
G01 X23.146774 Y41.562847 Z-1.000000
G01 X23.009847 Y42.056646 Z-1.000000
G02 X22.789099 Y43.143181 Z-1.000000 I7.631705 J2.116208
G02 X22.710951 Y44.336084 Z-1.000000 I9.128914 J1.197051
G01 X22.710740 Y44.802778 Z-1.000000
G01 X23.105744 Y44.802778 Z-1.000000
G02 X23.965065 Y44.691500 Z-1.000000 I0.000000 J-3.373584
G02 X24.721776 Y44.377099 Z-1.000000 I-0.768489 J-2.917476
G02 X25.376583 Y43.862694 Z-1.000000 I-1.553739 J-2.651779
G02 X25.919552 Y43.139442 Z-1.000000 I-2.605209 J-2.521255
G01 X26.129853 Y42.771215 Z-1.000000
G01 X27.214964 Y42.754536 Z-1.000000
G01 X28.300073 Y42.737857 Z-1.000000
G01 X28.436257 Y43.041457 Z-1.000000
G02 X29.005205 Y43.853923 Z-1.000000 I2.405246 J-1.078886
G02 X29.912107 Y44.474342 Z-1.000000 I2.253581 J-2.321145
G02 X30.900991 Y44.791681 Z-1.000000 I1.823658 J-3.983397
G02 X31.467871 Y44.776320 Z-1.000000 I0.248900 J-1.282327
G02 X31.589893 Y44.661765 Z-1.000000 I-0.041884 J-0.166879
G02 X31.671297 Y44.139096 Z-1.000000 I-1.637248 J-0.522669
G02 X31.580678 Y42.921908 Z-1.000000 I-8.219921 J-0.000000
G02 X31.336793 Y41.905044 Z-1.000000 I-5.966772 J0.893395
G01 X31.229455 Y41.583472 Z-1.000000
G01 X31.562384 Y41.264471 Z-1.000000
G02 X31.871989 Y40.935518 Z-1.000000 I-3.026887 J-3.159030
G02 X31.895311 Y40.871970 Z-1.000000 I-0.074919 J-0.063548
G02 X31.815840 Y40.698900 Z-1.000000 I-0.228190 J-0.000000
G02 X31.018901 Y40.118868 Z-1.000000 I-3.983938 J4.636269
G03 X30.172686 Y39.501357 Z-1.000000 I3.335445 J-5.459336
G03 X28.537101 Y37.975456 Z-1.000000 I19.066411 J-22.076458
G03 X27.873738 Y37.187860 Z-1.000000 I4.475225 J-4.442477
G03 X27.884610 Y37.058084 Z-1.000000 I0.082190 J-0.058459
G03 X28.014243 Y37.050769 Z-1.000000 I0.068912 J0.068912
G03 X29.172671 Y38.084148 Z-1.000000 I-8.679759 J10.896088
G02 X30.320713 Y39.139953 Z-1.000000 I13.575586 J-13.609503
G02 X30.404204 Y39.127760 Z-1.000000 I0.036368 J-0.042917
G02 X30.673825 Y38.528542 Z-1.000000 I-1.783066 J-1.162567
G02 X30.775241 Y37.775812 Z-1.000000 I-2.742742 J-0.752731
G03 X30.805929 Y37.515683 Z-1.000000 I1.117845 J0.000000
G01 X30.844829 Y37.484993 Z-1.000000
G03 X31.050934 Y37.606993 Z-1.000000 I0.000000 J0.235095
G03 X31.582352 Y38.829076 Z-1.000000 I-6.380540 J3.501137
G02 X31.778140 Y39.187478 Z-1.000000 I1.074518 J-0.354309
G02 X32.049223 Y39.404699 Z-1.000000 I0.635766 J-0.515651
G02 X32.825862 Y39.658303 Z-1.000000 I1.250000 J-2.512020
G02 X32.939745 Y39.557119 Z-1.000000 I0.016458 J-0.096156
G02 X32.936518 Y39.538841 Z-1.000000 I-0.077505 J0.004259
G02 X32.790401 Y39.065104 Z-1.000000 I-51.624303 J15.663316
G03 X32.643306 Y38.315548 Z-1.000000 I3.320240 J-1.040787
G03 X32.720402 Y38.231705 Z-1.000000 I0.077096 J-0.006475
G03 X32.994866 Y38.308166 Z-1.000000 I0.000000 J0.530842
G03 X33.547191 Y38.731117 Z-1.000000 I-1.636319 J2.708953
G01 X33.817651 Y38.990064 Z-1.000000
G01 X33.862064 Y38.813111 Z-1.000000
G02 X33.978975 Y38.073114 Z-1.000000 I-4.077952 J-1.023503
G02 X33.953828 Y37.455348 Z-1.000000 I-2.857113 J-0.193095
G02 X33.831209 Y37.155538 Z-1.000000 I-0.675535 J0.101307
G02 X33.457295 Y36.770911 Z-1.000000 I-1.516343 J1.100046
G02 X31.751278 Y35.711069 Z-1.000000 I-6.136473 J7.974821
G02 X30.562282 Y35.351246 Z-1.000000 I-1.694921 J3.456312
G03 X30.196871 Y35.227704 Z-1.000000 I0.131330 J-0.990624
G03 X29.722245 Y34.869998 Z-1.000000 I1.179260 J-2.058446
G03 X29.382146 Y34.445681 Z-1.000000 I1.536283 J-1.579821
G03 X29.398759 Y34.344701 Z-1.000000 I0.066455 J-0.040924
G02 X29.647287 Y34.031154 Z-1.000000 I-0.619148 J-0.746027
G02 X29.729842 Y33.680462 Z-1.000000 I-0.703584 J-0.350692
G02 X29.658164 Y33.599091 Z-1.000000 I-0.082027 J0.000000
G02 X28.526393 Y33.527413 Z-1.000000 I-1.131771 J8.899330
G02 X27.414879 Y33.598407 Z-1.000000 I0.000000 J8.736693
G02 X27.361997 Y33.676757 Z-1.000000 I0.008007 J0.062426
G03 X27.331521 Y33.772413 Z-1.000000 I-0.090815 J0.023749
G03 X27.184028 Y33.826097 Z-1.000000 I-0.147493 J-0.175770
G03 X27.018465 Y33.774636 Z-1.000000 I0.000000 J-0.292057
G03 X26.967005 Y33.676757 Z-1.000000 I0.067354 J-0.097880
G02 X26.897012 Y33.597405 Z-1.000000 I-0.079978 J0.000000
G02 X25.780128 Y33.527413 Z-1.000000 I-1.116884 J8.876284
G01 X24.593250 Y33.527413 Z-1.000000
G01 X24.648970 Y33.774468 Z-1.000000
G00 Z0.100000

(End cutting path id: path31)


(Start cutting path id: path29)
(Change tool to Default tool)

G00 Z0.100000
G00 X24.652194 Y33.750247

G01 Z-1.000000 F100.0(Penetrate)
G02 X24.697723 Y33.955709 Z-1.000000 I0.486362 J-0.000000 F200.000000
G02 X24.869304 Y34.216072 Z-1.000000 I0.967813 J-0.451074
G01 X25.086413 Y34.459060 Z-1.000000
G01 X24.722577 Y34.807901 Z-1.000000
G02 X23.879283 Y36.068010 Z-1.000000 I2.440714 J2.545613
G02 X23.621890 Y37.619771 Z-1.000000 I3.534258 J1.383462
G02 X23.702760 Y38.332566 Z-1.000000 I5.226421 J-0.231984
G02 X23.830220 Y38.754403 Z-1.000000 I1.941711 J-0.356519
G02 X24.010914 Y39.162408 Z-1.000000 I17.613544 J-7.556568
G02 X24.033282 Y39.198869 Z-1.000000 I0.160249 J-0.073213
G01 X24.061961 Y39.200886 Z-1.000000
G02 X25.214008 Y38.080586 Z-1.000000 I-41.897260 J-44.237043
G03 X26.367822 Y37.050677 Z-1.000000 I9.779734 J9.795027
G03 X26.497316 Y37.057974 Z-1.000000 I0.060663 J0.076128
G03 X26.510062 Y37.187784 Z-1.000000 I-0.072664 J0.072666
G03 X25.956831 Y37.865804 Z-1.000000 I-3.844318 J-2.572062
G03 X24.051204 Y39.647492 Z-1.000000 I-23.285479 J-22.995346
G03 X23.331107 Y40.131515 Z-1.000000 I-2.364904 J-2.740679
G02 X22.597103 Y40.629809 Z-1.000000 I1.619934 J3.175967
G02 X22.486727 Y40.873804 Z-1.000000 I0.214496 J0.243995
G02 X22.510212 Y40.936550 Z-1.000000 I0.095563 J0.000000
G02 X22.822227 Y41.259201 Z-1.000000 I3.235028 J-2.816201
G01 X23.157728 Y41.571636 Z-1.000000
G01 X23.043874 Y41.936464 Z-1.000000
G02 X22.806225 Y42.999576 Z-1.000000 I6.303741 J1.967262
G02 X22.712198 Y44.336084 Z-1.000000 I9.895164 J1.367708
G01 X22.710731 Y44.802778 Z-1.000000
G01 X23.065420 Y44.801649 Z-1.000000
G02 X23.958711 Y44.688745 Z-1.000000 I-0.010396 J-3.672539
G02 X24.685084 Y44.390714 Z-1.000000 I-0.688647 J-2.712588
G02 X25.355839 Y43.865741 Z-1.000000 I-1.611934 J-2.750554
G02 X25.921856 Y43.122207 Z-1.000000 I-2.747409 J-2.678676
G01 X26.133366 Y42.760051 Z-1.000000
G01 X27.203555 Y42.736203 Z-1.000000
G01 X28.273745 Y42.712355 Z-1.000000
G01 X28.478364 Y43.076555 Z-1.000000
G02 X29.112587 Y43.896216 Z-1.000000 I3.091641 J-1.736995
G02 X29.919326 Y44.461591 Z-1.000000 I2.220443 J-2.310110
G02 X30.379089 Y44.624345 Z-1.000000 I0.924016 J-1.879480
G02 X31.029487 Y44.713960 Z-1.000000 I0.841284 J-3.700785
G01 X31.694436 Y44.747446 Z-1.000000
G01 X31.650548 Y43.897705 Z-1.000000
G02 X31.502713 Y42.534800 Z-1.000000 I-12.133356 J0.626638
G02 X31.299435 Y41.782509 Z-1.000000 I-3.872805 J0.642869
G03 X31.306330 Y41.584696 Z-1.000000 I0.238587 J-0.090711
G03 X31.560906 Y41.216871 Z-1.000000 I1.183414 J0.547044
G01 X31.904717 Y40.867810 Z-1.000000
G01 X31.703603 Y40.628802 Z-1.000000
G02 X31.480397 Y40.417674 Z-1.000000 I-1.036129 J0.871850
G02 X31.141484 Y40.206857 Z-1.000000 I-1.371835 J1.827560
G03 X30.414773 Y39.723126 Z-1.000000 I1.672149 J-3.299816
G03 X28.614063 Y38.053891 Z-1.000000 I18.976780 J-22.277342
G03 X27.891077 Y37.189443 Z-1.000000 I4.724028 J-4.685527
G03 X27.900542 Y37.036753 Z-1.000000 I0.100378 J-0.070415
G03 X28.045052 Y37.023649 Z-1.000000 I0.079362 J0.071823
G03 X29.181662 Y38.019499 Z-1.000000 I-7.065937 J9.211237
G02 X30.321860 Y39.124682 Z-1.000000 I37.875704 J-37.934943
G01 X30.355628 Y39.124162 Z-1.000000
G02 X30.546714 Y38.806620 Z-1.000000 I-0.544251 J-0.543778
G02 X30.743107 Y37.864731 Z-1.000000 I-4.956253 J-1.524851
G03 X30.826705 Y37.453870 Z-1.000000 I2.368361 J0.267955
G01 X30.872219 Y37.430168 Z-1.000000
G03 X31.078639 Y37.606750 Z-1.000000 I-0.114112 J0.342336
G03 X31.640890 Y38.916596 Z-1.000000 I-8.826241 J4.564259
G02 X31.820564 Y39.210889 Z-1.000000 I0.765429 J-0.265320
G02 X32.122426 Y39.420628 Z-1.000000 I0.665676 J-0.635966
G02 X32.489092 Y39.546281 Z-1.000000 I1.007246 J-2.341412
G02 X32.719851 Y39.575752 Z-1.000000 I0.230759 J-0.888722
G02 X32.878838 Y39.524359 Z-1.000000 I0.000000 J-0.271613
G02 X32.900854 Y39.445077 Z-1.000000 I-0.038555 J-0.053405
G03 X32.683116 Y38.769632 Z-1.000000 I3.556652 J-1.519352
G03 X32.658663 Y38.361860 Z-1.000000 I1.250574 J-0.279613
G01 X32.679350 Y38.156033 Z-1.000000
G01 X32.997674 Y38.314142 Z-1.000000
G03 X33.302062 Y38.492350 Z-1.000000 I-1.143259 J2.301804
G03 X33.549291 Y38.690175 Z-1.000000 I-1.166695 J1.711459
G02 X33.782218 Y38.886672 Z-1.000000 I2.056616 J-2.201601
G01 X33.805597 Y38.885089 Z-1.000000
G02 X33.958227 Y38.562228 Z-1.000000 I-0.374594 J-0.374594
G02 X33.938430 Y37.531382 Z-1.000000 I-4.394660 J-0.431218
G02 X33.747704 Y37.125390 Z-1.000000 I-0.744769 J0.102081
G02 X32.873166 Y36.369732 Z-1.000000 I-3.678369 J3.373167
G02 X31.267852 Y35.510608 Z-1.000000 I-4.872392 J7.174929
G02 X30.290511 Y35.319488 Z-1.000000 I-0.977342 J2.403374
G03 X30.154627 Y35.274499 Z-1.000000 I0.000000 J-0.227705
G03 X29.704832 Y34.883923 Z-1.000000 I2.353458 J-3.164574
G03 X29.375916 Y34.453359 Z-1.000000 I1.510813 J-1.495051
G03 X29.394737 Y34.347994 Z-1.000000 I0.071792 J-0.041539
G02 X29.646807 Y34.030899 Z-1.000000 I-0.631089 J-0.760412
G02 X29.729834 Y33.680426 Z-1.000000 I-0.698200 J-0.350473
G02 X29.658346 Y33.598863 Z-1.000000 I-0.082273 J0.000000
G02 X28.572429 Y33.527376 Z-1.000000 I-1.085917 J8.212114
G02 X27.484892 Y33.597256 Z-1.000000 I0.000000 J8.497656
G02 X27.415023 Y33.676720 Z-1.000000 I0.010254 J0.079464
G03 X27.362960 Y33.773999 Z-1.000000 I-0.116914 J0.000000
G03 X27.191009 Y33.826061 Z-1.000000 I-0.171952 J-0.257931
G03 X27.019057 Y33.773999 Z-1.000000 I0.000000 J-0.309993
G03 X26.966995 Y33.676720 Z-1.000000 I0.064851 J-0.097279
G02 X26.897121 Y33.597251 Z-1.000000 I-0.080128 J0.000000
G02 X25.809590 Y33.527376 Z-1.000000 I-1.087531 J8.428314
G01 X24.652185 Y33.527376 Z-1.000000
G01 X24.652194 Y33.750247 Z-1.000000
G00 Z0.100000

(End cutting path id: path29)


(Start cutting path id: path27)
(Change tool to Default tool)

G00 Z0.100000
G00 X24.652194 Y33.681665

G01 Z-1.000000 F100.0(Penetrate)
G02 X24.714352 Y33.953028 Z-1.000000 I0.623431 J-0.000000 F200.000000
G02 X24.957749 Y34.313653 Z-1.000000 I1.370838 J-0.662771
G03 X24.985994 Y34.461669 Z-1.000000 I-0.106996 J0.097120
G03 X24.789143 Y34.761681 Z-1.000000 I-0.766893 J-0.288606
G02 X24.092048 Y35.631492 Z-1.000000 I3.089858 J3.190555
G02 X23.721506 Y36.503836 Z-1.000000 I2.737793 J1.677791
G02 X23.615138 Y37.836716 Z-1.000000 I3.740078 J0.969154
G02 X23.958262 Y39.007556 Z-1.000000 I3.202565 J-0.302840
G01 X24.069489 Y39.223374 Z-1.000000
G01 X25.238229 Y38.060244 Z-1.000000
G03 X26.404201 Y36.994401 Z-1.000000 I13.136074 J13.199450
G03 X26.500309 Y37.001224 Z-1.000000 I0.044529 J0.053067
G03 X26.577538 Y37.111495 Z-1.000000 I-0.418788 J0.375483
G03 X26.593648 Y37.175790 Z-1.000000 I-0.120249 J0.064295
G03 X26.296197 Y37.858671 Z-1.000000 I-0.932595 J0.000000
G03 X23.614402 Y39.946792 Z-1.000000 I-13.225741 J-14.219762
G02 X22.553451 Y40.712206 Z-1.000000 I6.963140 J10.769718
G02 X22.486727 Y40.851258 Z-1.000000 I0.111528 J0.139052
G02 X22.507269 Y40.905903 Z-1.000000 I0.082955 J-0.000000
G02 X22.831492 Y41.245031 Z-1.000000 I4.031647 J-3.529908
G01 X23.176257 Y41.575395 Z-1.000000
G01 X23.053307 Y41.945563 Z-1.000000
G02 X22.811507 Y42.972477 Z-1.000000 I5.605145 J1.861724
G02 X22.712198 Y44.334662 Z-1.000000 I9.799386 J1.399127
G02 X22.784190 Y44.668191 Z-1.000000 I0.794873 J0.002963
G02 X22.914165 Y44.776320 Z-1.000000 I0.177484 J-0.081162
G02 X23.517638 Y44.788358 Z-1.000000 I0.327919 J-1.306534
G02 X24.532584 Y44.438107 Z-1.000000 I-0.871922 J-4.172303
G02 X25.279900 Y43.913853 Z-1.000000 I-1.324404 J-2.682689
G02 X25.903072 Y43.122675 Z-1.000000 I-2.521622 J-2.627168
G01 X26.121045 Y42.749318 Z-1.000000
G01 X26.674699 Y42.749318 Z-1.000000
G01 X27.228354 Y42.749318 Z-1.000000
G01 X27.247949 Y40.047221 Z-1.000000
G01 X27.267543 Y37.345124 Z-1.000000
G01 X27.433183 Y37.292551 Z-1.000000
G02 X27.591130 Y37.224909 Z-1.000000 I-0.267497 J-0.842835
G02 X27.800046 Y37.091211 Z-1.000000 I-0.886694 J-1.615629
G02 X27.867789 Y36.868221 Z-1.000000 I-0.116122 J-0.157062
G02 X27.545707 Y36.381888 Z-1.000000 I-1.151861 J0.413018
G01 X27.265690 Y36.123530 Z-1.000000
G01 X27.265690 Y35.194421 Z-1.000000
G03 X27.300644 Y34.328009 Z-1.000000 I10.755472 J0.000000
G01 X27.337209 Y34.309513 Z-1.000000
G01 X27.355675 Y34.296522 Z-1.000000
G02 X27.303695 Y34.151263 Z-1.000000 I-0.560966 J0.118807
G03 X27.227007 Y33.949878 Z-1.000000 I0.835442 J-0.433431
G03 X27.236583 Y33.887455 Z-1.000000 I0.078336 J-0.019929
G01 X27.227103 Y33.852527 Z-1.000000
G02 X27.120754 Y33.826097 Z-1.000000 I-0.106349 J0.200754
G03 X27.011380 Y33.781722 Z-1.000000 I-0.000000 J-0.156978
G03 X26.967005 Y33.676757 Z-1.000000 I0.101956 J-0.104966
G02 X26.897131 Y33.597287 Z-1.000000 I-0.080128 J0.000000
G02 X25.809600 Y33.527413 Z-1.000000 I-1.087531 J8.428314
G02 X24.724205 Y33.599421 Z-1.000000 I0.000000 J8.216264
G02 X24.652195 Y33.681665 Z-1.000000 I0.010961 J0.082244
G01 X24.652194 Y33.681665 Z-1.000000
G00 Z0.100000

(End cutting path id: path27)


(Start cutting path id: path25)
(Change tool to Default tool)

G00 Z0.100000
G00 X24.652194 Y33.641818

G01 Z-1.000000 F100.0(Penetrate)
G02 X24.738262 Y34.029758 Z-1.000000 I0.917329 J0.000000 F200.000000
G02 X24.978349 Y34.340684 Z-1.000000 I0.812359 J-0.379120
G03 X24.998788 Y34.450523 Z-1.000000 I-0.055721 J0.067189
G03 X24.663493 Y34.902928 Z-1.000000 I-1.934723 J-1.083445
G02 X23.873361 Y36.110631 Z-1.000000 I2.817997 J2.705978
G02 X23.606796 Y37.447655 Z-1.000000 I3.219808 J1.337024
G02 X23.701910 Y38.302525 Z-1.000000 I3.889263 J0.000000
G02 X23.958262 Y39.007556 Z-1.000000 I2.886099 J-0.650275
G01 X24.069489 Y39.223374 Z-1.000000
G01 X25.242359 Y38.052223 Z-1.000000
G03 X26.412021 Y37.007973 Z-1.000000 I9.922981 J9.937520
G03 X26.539454 Y37.018336 Z-1.000000 I0.058201 J0.073018
G03 X26.544260 Y37.152304 Z-1.000000 I-0.077170 J0.069839
G03 X25.639269 Y38.169040 Z-1.000000 I-8.451756 J-6.611730
G03 X23.881048 Y39.787237 Z-1.000000 I-23.305936 J-23.558327
G03 X23.291409 Y40.178494 Z-1.000000 I-1.889747 J-2.207996
G02 X22.992220 Y40.364773 Z-1.000000 I0.848047 J1.695482
G02 X22.728222 Y40.606605 Z-1.000000 I1.183884 J1.557414
G01 X22.484353 Y40.874995 Z-1.000000
G01 X22.829266 Y41.225174 Z-1.000000
G01 X23.174180 Y41.575352 Z-1.000000
G01 X23.061693 Y41.975656 Z-1.000000
G02 X22.880781 Y42.805749 Z-1.000000 I6.894235 J1.937300
G02 X22.740811 Y44.026111 Z-1.000000 I14.790539 J2.314610
G02 X22.948854 Y44.545230 Z-1.000000 I0.635474 J0.046574
G02 X23.518548 Y44.729598 Z-1.000000 I0.489991 J-0.541708
G02 X24.844927 Y44.246231 Z-1.000000 I-0.323839 J-2.950132
G02 X25.847553 Y43.171539 Z-1.000000 I-1.788747 J-2.673841
G01 X26.108285 Y42.716425 Z-1.000000
G01 X26.649651 Y42.714167 Z-1.000000
G01 X27.191019 Y42.711909 Z-1.000000
G01 X27.191019 Y40.029534 Z-1.000000
G01 X27.191019 Y37.347158 Z-1.000000
G01 X27.443339 Y37.263886 Z-1.000000
G02 X27.679461 Y37.155724 Z-1.000000 I-0.368189 J-1.115586
G02 X27.830441 Y37.031679 Z-1.000000 I-0.342072 J-0.570255
G02 X27.852511 Y36.885203 Z-1.000000 I-0.099296 J-0.089862
G02 X27.578121 Y36.490775 Z-1.000000 I-1.276935 J0.595663
G01 X27.191019 Y36.098802 Z-1.000000
G01 X27.191019 Y34.962414 Z-1.000000
G02 X27.124283 Y33.892760 Z-1.000000 I-8.605778 J-0.000000
G02 X27.048666 Y33.826024 Z-1.000000 I-0.075617 J0.009472
G03 X26.963879 Y33.781577 Z-1.000000 I0.000000 J-0.103094
G03 X26.945369 Y33.676683 Z-1.000000 I0.104965 J-0.072603
G02 X26.892638 Y33.598208 Z-1.000000 I-0.061015 J-0.015956
G02 X25.818308 Y33.527340 Z-1.000000 I-1.074330 J8.107780
G02 X24.706593 Y33.581747 Z-1.000000 I0.000000 J11.385109
G02 X24.652194 Y33.641744 Z-1.000000 I0.005887 J0.059997
G01 X24.652194 Y33.641818 Z-1.000000
G00 Z0.100000

(End cutting path id: path25)


(Start cutting path id: path35)
(Change tool to Default tool)

G00 Z0.100000
G00 X24.613390 Y33.529789

G01 Z-1.000000 F100.0(Penetrate)
G02 X24.589567 Y33.720163 Z-1.000000 I0.196138 J0.121222 F200.000000
G02 X24.828723 Y34.214732 Z-1.000000 I1.803414 J-0.566960
G01 X25.009038 Y34.480438 Z-1.000000
G01 X24.575048 Y34.936518 Z-1.000000
G02 X23.947567 Y35.835393 Z-1.000000 I2.636959 J2.509244
G02 X23.598638 Y36.915835 Z-1.000000 I3.501863 J1.727491
G02 X23.555567 Y37.497098 Z-1.000000 I3.111085 J0.522754
G02 X23.620146 Y38.075311 Z-1.000000 I3.142820 J-0.058299
G02 X23.765424 Y38.643702 Z-1.000000 I6.202035 J-1.282449
G02 X23.894668 Y38.973670 Z-1.000000 I2.210035 J-0.675349
G01 X24.049841 Y39.294839 Z-1.000000
G01 X23.616982 Y39.715330 Z-1.000000
G03 X23.182109 Y40.133707 Z-1.000000 I-43.395629 J-44.671491
G03 X22.788939 Y40.504277 Z-1.000000 I-34.463606 J-36.171605
G01 X22.393754 Y40.872732 Z-1.000000
G01 X22.757594 Y41.219098 Z-1.000000
G01 X23.121433 Y41.565463 Z-1.000000
G01 X22.960624 Y42.173458 Z-1.000000
G02 X22.580619 Y44.236628 Z-1.000000 I13.281480 J3.512830
G02 X22.687563 Y44.746777 Z-1.000000 I0.843348 J0.089490
G02 X22.921270 Y44.875288 Z-1.000000 I0.221886 J-0.126753
G02 X24.056407 Y44.683384 Z-1.000000 I-0.220226 J-4.755850
G02 X25.112537 Y44.117528 Z-1.000000 I-0.845154 J-2.845944
G02 X25.972837 Y43.085340 Z-1.000000 I-2.391198 J-2.867609
G01 X26.162515 Y42.749318 Z-1.000000
G01 X27.206128 Y42.758123 Z-1.000000
G01 X28.249739 Y42.766929 Z-1.000000
G01 X28.458411 Y43.131475 Z-1.000000
G02 X29.741028 Y44.417917 Z-1.000000 I3.020705 J-1.729101
G02 X31.335275 Y44.789635 Z-1.000000 I1.411424 J-2.448786
G01 X31.708632 Y44.765420 Z-1.000000
G01 X31.688002 Y44.130714 Z-1.000000
G02 X31.588959 Y42.975956 Z-1.000000 I-10.920311 J0.355001
G02 X31.393048 Y42.016494 Z-1.000000 I-7.727393 J1.078108
G01 X31.275604 Y41.582374 Z-1.000000
G01 X31.618820 Y41.232444 Z-1.000000
G01 X31.962037 Y40.882514 Z-1.000000
G01 X31.674737 Y40.575992 Z-1.000000
G02 X31.374959 Y40.288015 Z-1.000000 I-2.893515 J2.712065
G02 X31.266539 Y40.223076 Z-1.000000 I-0.239758 J0.277316
G03 X30.726069 Y39.907733 Z-1.000000 I0.695958 J-1.813641
G03 X28.999872 Y38.352572 Z-1.000000 I17.046623 J-20.657017
G03 X27.894410 Y37.157684 Z-1.000000 I12.004012 J-12.214427
G03 X27.899353 Y37.043332 Z-1.000000 I0.064814 J-0.054481
G03 X28.014224 Y37.037554 Z-1.000000 I0.060631 J0.060631
G03 X29.162440 Y38.074970 Z-1.000000 I-9.818369 J12.021136
G02 X30.316962 Y39.167474 Z-1.000000 I20.945412 J-20.978130
G02 X30.387818 Y39.173777 Z-1.000000 I0.039641 J-0.044207
G02 X30.562272 Y38.950727 Z-1.000000 I-0.215049 J-0.347944
G02 X30.818548 Y37.830461 Z-1.000000 I-6.414909 J-2.056948
G01 X30.869642 Y37.466578 Z-1.000000
G01 X31.114216 Y37.863092 Z-1.000000
G03 X31.333427 Y38.271560 Z-1.000000 I-3.282542 J2.024689
G03 X31.531885 Y38.768032 Z-1.000000 I-4.657842 J2.149808
G02 X31.769842 Y39.218436 Z-1.000000 I1.533270 J-0.521995
G02 X32.027306 Y39.427971 Z-1.000000 I0.550058 J-0.412933
G02 X32.357230 Y39.553825 Z-1.000000 I1.002610 J-2.132962
G02 X32.695058 Y39.626828 Z-1.000000 I0.644387 J-2.163790
G02 X32.949030 Y39.603378 Z-1.000000 I0.076522 J-0.558273
G02 X32.981976 Y39.531632 Z-1.000000 I-0.017003 J-0.051245
G03 X32.615872 Y38.423619 Z-1.000000 I7.680449 J-3.152230
G03 X32.659854 Y38.263647 Z-1.000000 I0.162636 J-0.041318
G03 X32.938923 Y38.228209 Z-1.000000 I0.162408 J0.162408
G03 X33.635792 Y38.839120 Z-1.000000 I-1.266073 J2.147132
G01 X33.822841 Y39.078120 Z-1.000000
G01 X33.904064 Y38.785577 Z-1.000000
G02 X33.957726 Y38.489267 Z-1.000000 I-1.584910 J-0.440040
G02 X33.985705 Y37.854811 Z-1.000000 I-7.287344 J-0.639220
G01 X33.986270 Y37.216594 Z-1.000000
G01 X33.706255 Y36.950249 Z-1.000000
G02 X32.246754 Y35.909212 Z-1.000000 I-4.402320 J4.628307
G02 X30.503473 Y35.287760 Z-1.000000 I-3.136355 J6.042190
G03 X30.147975 Y35.152810 Z-1.000000 I0.249286 J-1.192407
G03 X29.738659 Y34.850347 Z-1.000000 I1.083438 J-1.894382
G01 X29.357789 Y34.493197 Z-1.000000
G01 X29.539526 Y34.215640 Z-1.000000
G02 X29.690972 Y33.927329 Z-1.000000 I-1.420347 J-0.930022
G02 X29.744303 Y33.714069 Z-1.000000 I-0.716215 J-0.292407
G01 X29.767333 Y33.490055 Z-1.000000
G01 X28.572593 Y33.490055 Z-1.000000
G02 X27.446621 Y33.569318 Z-1.000000 I-0.000000 J8.037212
G02 X27.353410 Y33.662502 Z-1.000000 I0.015363 J0.108579
G03 X27.167443 Y33.813481 Z-1.000000 I-0.174331 J-0.024710
G03 X27.004472 Y33.639388 Z-1.000000 I0.011532 J-0.174122
G02 X26.934615 Y33.558675 Z-1.000000 I-0.081572 J0.000013
G02 X25.833960 Y33.469510 Z-1.000000 I-1.253805 J8.639166
G02 X24.684653 Y33.487787 Z-1.000000 I-0.301552 J17.182564
G02 X24.613546 Y33.529758 Z-1.000000 I0.004378 J0.088637
G01 X24.613390 Y33.529789 Z-1.000000
G00 Z0.100000

(End cutting path id: path35)


(Start cutting path id: path33)
(Change tool to Default tool)

G00 Z0.100000
G00 X25.753596 Y33.510641

G01 Z-1.000000 F100.0(Penetrate)
G02 X24.613884 Y33.566938 Z-1.000000 I0.313303 J17.907320 F200.000000
G01 X24.577523 Y33.606379 Z-1.000000
G02 X24.651623 Y33.948949 Z-1.000000 I0.828909 J0.000000
G02 X24.915399 Y34.350847 Z-1.000000 I1.419991 J-0.644463
G03 X24.928764 Y34.468764 Z-1.000000 I-0.075434 J0.068266
G03 X24.609598 Y34.897766 Z-1.000000 I-1.802782 J-1.007998
G02 X23.725577 Y36.360759 Z-1.000000 I2.740962 J2.654825
G02 X23.601390 Y37.964257 Z-1.000000 I3.209096 J1.055095
G02 X23.719382 Y38.483607 Z-1.000000 I4.357429 J-0.716894
G02 X23.874170 Y38.899702 Z-1.000000 I2.945916 J-0.859046
G01 X24.059951 Y39.306348 Z-1.000000
G01 X25.229181 Y38.137118 Z-1.000000
G03 X26.402376 Y37.053409 Z-1.000000 I14.252604 J14.252612
G03 X26.500661 Y37.052750 Z-1.000000 I0.049534 J0.058082
G03 X26.509353 Y37.142100 Z-1.000000 I-0.040715 J0.049058
G03 X25.646221 Y38.100477 Z-1.000000 I-10.198158 J-8.316779
G03 X24.672812 Y39.044651 Z-1.000000 I-26.056315 J-25.889240
G03 X24.204166 Y39.448455 Z-1.000000 I-5.219268 J-5.583515
G02 X23.722835 Y39.837661 Z-1.000000 I20.839049 J26.263932
G02 X23.681467 Y39.879152 Z-1.000000 I0.191000 J0.231801
G03 X23.638203 Y39.917755 Z-1.000000 I-0.144497 J-0.118396
G03 X23.308111 Y40.119873 Z-1.000000 I-4.503998 J-6.985180
G02 X22.988652 Y40.336266 Z-1.000000 I1.400041 J2.410877
G02 X22.689367 Y40.604691 Z-1.000000 I1.866776 J2.382443
G01 X22.406644 Y40.894373 Z-1.000000
G01 X22.775920 Y41.239787 Z-1.000000
G01 X23.145196 Y41.585202 Z-1.000000
G01 X23.010560 Y42.017919 Z-1.000000
G02 X22.796682 Y42.992038 Z-1.000000 I5.574484 J1.734475
G02 X22.710951 Y44.298749 Z-1.000000 I9.979549 J1.310909
G01 X22.710740 Y44.802778 Z-1.000000
G01 X23.140100 Y44.801931 Z-1.000000
G02 X24.700550 Y44.379319 Z-1.000000 I-0.006157 J-3.114935
G02 X25.879754 Y43.207918 Z-1.000000 I-1.656436 J-2.846698
G01 X26.138227 Y42.770422 Z-1.000000
G01 X27.186905 Y42.766330 Z-1.000000
G01 X28.235583 Y42.762238 Z-1.000000
G01 X28.521248 Y43.203820 Z-1.000000
G02 X29.431003 Y44.188281 Z-1.000000 I3.292107 J-2.129694
G02 X30.472070 Y44.696219 Z-1.000000 I1.779125 J-2.325631
G02 X31.538164 Y44.838745 Z-1.000000 I1.114741 J-4.279826
G02 X31.676761 Y44.709456 Z-1.000000 I0.001510 J-0.137313
G02 X31.622808 Y42.948411 Z-1.000000 I-9.884083 J-0.578535
G02 X31.330762 Y41.833188 Z-1.000000 I-4.208630 J0.506275
G03 X31.331391 Y41.611477 Z-1.000000 I0.265938 J-0.110102
G03 X31.562503 Y41.282310 Z-1.000000 I0.873080 J0.367282
G02 X31.867779 Y40.963472 Z-1.000000 I-2.398385 J-2.601941
G02 X31.895311 Y40.888198 Z-1.000000 I-0.089141 J-0.075275
G02 X31.776990 Y40.618675 Z-1.000000 I-0.366132 J0.000000
G02 X31.073926 Y40.132977 Z-1.000000 I-2.088535 J2.271517
G03 X30.489317 Y39.745995 Z-1.000000 I1.324666 J-2.636227
G03 X28.736364 Y38.148737 Z-1.000000 I21.846732 J-25.736826
G03 X27.876283 Y37.187836 Z-1.000000 I6.771112 J-6.926034
G03 X27.884176 Y37.058535 Z-1.000000 I0.077002 J-0.060191
G03 X28.014216 Y37.051177 Z-1.000000 I0.069140 J0.069139
G03 X29.168028 Y38.080603 Z-1.000000 I-8.583371 J10.781835
G02 X30.321876 Y39.197912 Z-1.000000 I37.079253 J-37.137387
G01 X30.357194 Y39.197356 Z-1.000000
G02 X30.571259 Y38.854648 Z-1.000000 I-0.634591 J-0.634591
G02 X30.753510 Y38.045043 Z-1.000000 I-3.579401 J-1.231081
G03 X30.930636 Y37.798359 Z-1.000000 I0.308481 J0.034566
G03 X31.140109 Y37.864486 Z-1.000000 I0.068723 J0.147145
G03 X31.349460 Y38.279519 Z-1.000000 I-3.655498 J2.104215
G03 X31.535768 Y38.769753 Z-1.000000 I-4.919374 J2.150077
G02 X31.767887 Y39.207192 Z-1.000000 I1.363788 J-0.443365
G02 X32.039608 Y39.417092 Z-1.000000 I0.544021 J-0.423424
G02 X32.701823 Y39.639542 Z-1.000000 I1.684766 J-3.918500
G02 X32.892408 Y39.627680 Z-1.000000 I0.076404 J-0.309409
G02 X32.932587 Y39.560120 Z-1.000000 I-0.022735 J-0.059249
G02 X32.819828 Y39.078261 Z-1.000000 I-2.493756 J0.329434
G03 X32.650301 Y38.316833 Z-1.000000 I3.383767 J-1.152963
G03 X32.726548 Y38.231722 Z-1.000000 I0.076248 J-0.008402
G03 X32.977941 Y38.304366 Z-1.000000 I0.000000 J0.471306
G03 X33.588122 Y38.775019 Z-1.000000 I-2.180243 J3.457451
G01 X33.824844 Y38.996177 Z-1.000000
G01 X33.905060 Y38.707289 Z-1.000000
G02 X33.958639 Y38.414762 Z-1.000000 I-1.599631 J-0.444154
G02 X33.985691 Y37.828136 Z-1.000000 I-6.445738 J-0.591185
G01 X33.986256 Y37.237871 Z-1.000000
G01 X33.686804 Y36.953010 Z-1.000000
G02 X32.170721 Y35.875467 Z-1.000000 I-4.512301 J4.743406
G02 X30.514042 Y35.319891 Z-1.000000 I-2.644308 J5.137270
G03 X30.171207 Y35.194550 Z-1.000000 I0.175473 J-1.011489
G03 X29.724299 Y34.857970 Z-1.000000 I1.217559 J-2.081650
G01 X29.307914 Y34.460821 Z-1.000000
G01 X29.475114 Y34.282643 Z-1.000000
G02 X29.612442 Y34.088103 Z-1.000000 I-0.626803 J-0.588209
G02 X29.715550 Y33.815949 Z-1.000000 I-1.141447 J-0.588058
G01 X29.788784 Y33.527430 Z-1.000000
G01 X28.639319 Y33.527430 Z-1.000000
G03 X27.489887 Y33.525950 Z-1.000000 I-0.000000 J-446.331666
G03 X27.433850 Y33.524467 Z-1.000000 I0.003022 J-1.173428
G01 X27.397060 Y33.545168 Z-1.000000
G02 X27.353985 Y33.673810 Z-1.000000 I0.358404 J0.191542
G03 X27.153297 Y33.838802 Z-1.000000 I-0.193029 J-0.030242
G03 X26.953446 Y33.658091 Z-1.000000 I0.008237 J-0.209974
G02 X26.862590 Y33.568804 Z-1.000000 I-0.103620 J0.014572
G02 X25.753746 Y33.510644 Z-1.000000 I-0.969854 J7.891241
G01 X25.753596 Y33.510641 Z-1.000000
G00 Z0.100000

(End cutting path id: path33)


(Start cutting path id: path23)
(Change tool to Default tool)

G00 Z0.100000
G00 X27.415312 Y33.695423

G01 Z-1.000000 F100.0(Penetrate)
G02 X27.539216 Y34.100274 Z-1.000000 I0.727463 J-0.001254 F200.000000
G02 X27.955717 Y34.498543 Z-1.000000 I1.117966 J-0.752226
G02 X28.539084 Y34.679969 Z-1.000000 I0.652953 J-1.070927
G02 X29.081377 Y34.561089 Z-1.000000 I0.057464 J-1.034191
G02 X29.570974 Y34.121975 Z-1.000000 I-0.637180 J-1.202932
G02 X29.729842 Y33.604482 Z-1.000000 I-0.763399 J-0.517493
G01 X29.692590 Y33.564667 Z-1.000000
G02 X28.572438 Y33.527413 Z-1.000000 I-1.120152 J16.821831
G02 X27.493050 Y33.605422 Z-1.000000 I-0.000000 J7.506644
G02 X27.415312 Y33.695423 Z-1.000000 I0.013055 J0.089850
G01 X27.415312 Y33.695423 Z-1.000000
G00 Z0.100000

(End cutting path id: path23)


(Start cutting path id: path25)
(Change tool to Default tool)

G00 Z0.100000
G00 X27.415032 Y33.723944

G01 Z-1.000000 F100.0(Penetrate)
G02 X27.722676 Y34.370810 Z-1.000000 I0.833888 J0.000000 F200.000000
G02 X28.589202 Y34.679165 Z-1.000000 I0.867652 J-1.066528
G02 X29.129088 Y34.526350 Z-1.000000 I0.000630 J-1.027877
G02 X29.560605 Y34.080428 Z-1.000000 I-0.659134 J-1.069589
G02 X29.472307 Y33.762088 Z-1.000000 I-0.201855 J-0.115427
G02 X28.572438 Y33.527413 Z-1.000000 I-0.899869 J1.607952
G01 X27.415032 Y33.527413 Z-1.000000
G01 X27.415032 Y33.723944 Z-1.000000
G00 Z0.100000

(End cutting path id: path25)


(Start cutting path id: path27)
(Change tool to Default tool)

G00 Z0.100000
G00 X27.402833 Y33.819818

G01 Z-1.000000 F100.0(Penetrate)
G02 X27.397261 Y34.076325 Z-1.000000 I1.742556 J0.166170 F200.000000
G01 X27.416614 Y34.086470 Z-1.000000
G01 X27.451850 Y34.090495 Z-1.000000
G03 X27.593406 Y34.261770 Z-1.000000 I-0.792029 J0.798736
G02 X28.002570 Y34.589988 Z-1.000000 I0.729552 J-0.490330
G02 X28.739059 Y34.710187 Z-1.000000 I0.648426 J-1.656640
G02 X29.154267 Y34.666411 Z-1.000000 I-0.186218 J-3.757286
G01 X29.165841 Y34.641065 Z-1.000000
G01 X29.167509 Y34.598691 Z-1.000000
G03 X29.331076 Y34.415654 Z-1.000000 I1.025503 J0.751818
G02 X29.640803 Y34.008985 Z-1.000000 I-0.994643 J-1.078821
G02 X29.729842 Y33.641818 Z-1.000000 I-0.712521 J-0.367168
G02 X29.675480 Y33.581776 Z-1.000000 I-0.060338 J0.000000
G02 X28.580281 Y33.527413 Z-1.000000 I-1.095199 J11.004761
G01 X27.430719 Y33.527413 Z-1.000000
G01 X27.402833 Y33.819818 Z-1.000000
G00 Z0.100000

(End cutting path id: path27)


(Start cutting path id: path27)
(Change tool to Default tool)

G00 Z0.100000
G00 X28.124410 Y37.783677

G01 Z-1.000000 F100.0(Penetrate)
G02 X28.264862 Y37.921079 Z-1.000000 I1.198621 J-1.084747 F200.000000
G01 X28.296898 Y37.933021 Z-1.000000
G01 X28.304123 Y37.919652 Z-1.000000
G02 X28.199081 Y37.783677 Z-1.000000 I-0.924296 J0.605466
G02 X28.058629 Y37.646276 Z-1.000000 I-1.198590 J1.084715
G01 X28.026592 Y37.634334 Z-1.000000
G01 X28.019371 Y37.647696 Z-1.000000
G02 X28.124410 Y37.783677 Z-1.000000 I0.924138 J-0.605292
G01 X28.124410 Y37.783677 Z-1.000000
G00 Z0.100000

(End cutting path id: path27)


(Start cutting path id: path27)
(Change tool to Default tool)

G00 Z0.100000
G00 X28.572438 Y38.306375

G01 Z-1.000000 F100.0(Penetrate)
G02 X28.628789 Y38.362736 Z-1.000000 I0.147493 J-0.091119 F200.000000
G02 X28.693257 Y38.381048 Z-1.000000 I0.064467 J-0.104318
G01 X28.726670 Y38.358044 Z-1.000000
G02 X28.721781 Y38.306375 Z-1.000000 I-0.054692 J-0.020891
G02 X28.665428 Y38.250016 Z-1.000000 I-0.147477 J0.091109
G02 X28.600959 Y38.231705 Z-1.000000 I-0.064469 J0.104332
G01 X28.567548 Y38.254708 Z-1.000000
G02 X28.572438 Y38.306375 Z-1.000000 I0.054687 J0.020889
G01 X28.572438 Y38.306375 Z-1.000000
G00 Z0.100000

(End cutting path id: path27)


(Start cutting path id: path27)
(Change tool to Default tool)

G00 Z0.100000
G00 X29.247668 Y38.898588

G01 Z-1.000000 F100.0(Penetrate)
G02 X29.236132 Y38.960672 Z-1.000000 I0.074324 J0.045924 F200.000000
G02 X29.268158 Y39.007308 Z-1.000000 I0.068835 J-0.012956
G01 X29.306735 Y39.001922 Z-1.000000
G02 X29.331601 Y38.937797 Z-1.000000 I-0.070249 J-0.064125
G02 X29.297228 Y38.883797 Z-1.000000 I-0.059602 J0.000000
G01 X29.247674 Y38.898588 Z-1.000000
G01 X29.247668 Y38.898588 Z-1.000000
G00 Z0.100000

(End cutting path id: path27)


(Start cutting path id: path29)
(Change tool to Default tool)

G00 Z0.100000
G00 X29.375120 Y39.269809

G01 Z-1.000000 F100.0(Penetrate)
G03 X29.727092 Y39.565819 Z-1.000000 I-0.248966 J0.653295 F200.000000
G03 X29.878906 Y40.117155 Z-1.000000 I-0.929139 J0.552415
G01 X29.879186 Y40.397173 Z-1.000000
G01 X29.401719 Y40.397173 Z-1.000000
G03 X28.949978 Y40.332013 Z-1.000000 I0.000000 J-1.598494
G03 X28.704726 Y40.191826 Z-1.000000 I0.173041 J-0.587349
G03 X28.346885 Y39.608247 Z-1.000000 I0.880742 J-0.941558
G03 X28.438944 Y39.272236 Z-1.000000 I0.320812 J-0.092722
G03 X28.737834 Y39.153332 Z-1.000000 I0.300046 J0.319115
G03 X29.375120 Y39.269696 Z-1.000000 I0.004690 J1.777594
G01 X29.375120 Y39.269809 Z-1.000000
G00 Z0.100000

(End cutting path id: path29)


(Start cutting path id: path31)
(Change tool to Default tool)

G00 Z0.100000
G00 X29.396298 Y39.291819

G01 Z-1.000000 F100.0(Penetrate)
G03 X29.733282 Y39.605693 Z-1.000000 I-0.301330 J0.661351 F200.000000
G03 X29.879186 Y40.178883 Z-1.000000 I-1.052947 J0.573190
G01 X29.879186 Y40.414570 Z-1.000000
G01 X29.396233 Y40.383819 Z-1.000000
G03 X28.936705 Y40.299014 Z-1.000000 I0.125107 J-1.965333
G03 X28.723353 Y40.174636 Z-1.000000 I0.163315 J-0.525316
G03 X28.410730 Y39.695988 Z-1.000000 I0.830050 J-0.883555
G03 X28.415765 Y39.306613 Z-1.000000 I0.530164 J-0.187864
G03 X28.658038 Y39.137377 Z-1.000000 I0.246253 J0.094495
G03 X29.396298 Y39.291825 Z-1.000000 I0.025918 J1.717780
G01 X29.396298 Y39.291819 Z-1.000000
G00 Z0.100000

(End cutting path id: path31)


(Start cutting path id: path35)
(Change tool to Default tool)

G00 Z0.100000
G00 X29.349105 Y39.310621

G01 Z-1.000000 F100.0(Penetrate)
G03 X29.660594 Y39.599231 Z-1.000000 I-0.365592 J0.706969 F200.000000
G03 X29.815748 Y40.065847 Z-1.000000 I-0.907931 J0.560998
G03 X29.753801 Y40.286613 Z-1.000000 I-0.322351 J0.028622
G03 X29.580499 Y40.384677 Z-1.000000 I-0.196396 J-0.144914
G03 X28.958195 Y40.296850 Z-1.000000 I-0.127713 J-1.343684
G03 X28.606482 Y40.001080 Z-1.000000 I0.264440 J-0.671462
G03 X28.428067 Y39.492999 Z-1.000000 I1.103561 J-0.672887
G03 X28.510210 Y39.252212 Z-1.000000 I0.286150 J-0.036786
G03 X28.780389 Y39.151152 Z-1.000000 I0.246014 J0.246021
G03 X29.349105 Y39.310621 Z-1.000000 I-0.101315 J1.455168
G01 X29.349105 Y39.310621 Z-1.000000
G00 Z0.100000

(End cutting path id: path35)


(Start cutting path id: path33)
(Change tool to Default tool)

G00 Z0.100000
G00 X29.498750 Y39.394613

G01 Z-1.000000 F100.0(Penetrate)
G03 X29.849107 Y39.881959 Z-1.000000 I-0.787213 J0.935544 F200.000000
G03 X29.850918 Y40.288456 Z-1.000000 I-0.521775 J0.205577
G03 X29.766652 Y40.358755 Z-1.000000 I-0.105102 J-0.040330
G03 X29.352108 Y40.382399 Z-1.000000 I-0.298280 J-1.583770
G03 X28.751165 Y40.140586 Z-1.000000 I0.076517 J-1.057781
G03 X28.458623 Y39.640578 Z-1.000000 I0.541807 J-0.652581
G03 X28.553664 Y39.350462 Z-1.000000 I0.314668 J-0.057542
G03 X28.921397 Y39.203574 Z-1.000000 I0.369496 J0.391279
G03 X29.250874 Y39.256123 Z-1.000000 I0.003293 J1.038511
G03 X29.498750 Y39.394613 Z-1.000000 I-0.236098 J0.713658
G01 X29.498750 Y39.394613 Z-1.000000
G00 Z0.100000

(End cutting path id: path33)


(Start cutting path id: path29)
(Change tool to Default tool)

G00 Z0.100000
G00 X29.000244 Y39.588542

G01 Z-1.000000 F100.0(Penetrate)
G02 X28.943248 Y39.953679 Z-1.000000 I0.221609 J0.221609 F200.000000
G02 X29.248298 Y40.070019 Z-1.000000 I0.217429 J-0.112011
G02 X29.318974 Y39.995735 Z-1.000000 I-0.042771 J-0.111458
G02 X29.342588 Y39.782259 Z-1.000000 I-0.497755 J-0.163103
G02 X29.199166 Y39.561477 Z-1.000000 I-0.283880 J0.027435
G02 X29.000244 Y39.588542 Z-1.000000 I-0.081666 J0.144321
G01 X29.000244 Y39.588542 Z-1.000000
G00 Z0.100000

(End cutting path id: path29)


(Start cutting path id: path31)
(Change tool to Default tool)

G00 Z0.100000
G00 X28.986539 Y39.609014

G01 Z-1.000000 F100.0(Penetrate)
G02 X28.915839 Y39.914652 Z-1.000000 I0.268952 J0.223210 F200.000000
G02 X29.101672 Y40.083421 Z-1.000000 I0.217487 J-0.052780
G02 X29.345240 Y39.975073 Z-1.000000 I0.035466 J-0.248216
G02 X29.369066 Y39.685584 Z-1.000000 I-0.247071 J-0.166061
G02 X29.184234 Y39.539025 Z-1.000000 I-0.235662 J0.107375
G02 X28.986539 Y39.609014 Z-1.000000 I-0.040177 J0.200717
G01 X28.986539 Y39.609014 Z-1.000000
G00 Z0.100000

(End cutting path id: path31)


(Start cutting path id: path35)
(Change tool to Default tool)

G00 Z0.100000
G00 X28.958238 Y39.550899

G01 Z-1.000000 F100.0(Penetrate)
G02 X28.863850 Y39.839182 Z-1.000000 I0.237283 J0.237283 F200.000000
G02 X29.041062 Y40.089529 Z-1.000000 I0.339098 J-0.052141
G02 X29.390746 Y39.993278 Z-1.000000 I0.124208 J-0.232082
G02 X29.341552 Y39.590723 Z-1.000000 I-0.281916 J-0.169832
G02 X29.129983 Y39.489964 Z-1.000000 I-0.247784 J0.247784
G02 X28.958238 Y39.550899 Z-1.000000 I-0.021900 J0.210774
G01 X28.958238 Y39.550899 Z-1.000000
G00 Z0.100000

(End cutting path id: path35)


(Start cutting path id: path33)
(Change tool to Default tool)

G00 Z0.100000
G00 X28.939163 Y39.687627

G01 Z-1.000000 F100.0(Penetrate)
G02 X28.978178 Y39.987624 Z-1.000000 I0.400326 J0.100472 F200.000000
G02 X29.166041 Y40.098486 Z-1.000000 I0.187863 J-0.103743
G02 X29.407669 Y39.933358 Z-1.000000 I0.000000 J-0.259348
G02 X29.355680 Y39.612155 Z-1.000000 I-0.298679 J-0.116466
G02 X29.113982 Y39.524089 Z-1.000000 I-0.196233 J0.162857
G02 X28.939163 Y39.687627 Z-1.000000 I0.039373 J0.217297
G01 X28.939163 Y39.687627 Z-1.000000
G00 Z0.100000

(End cutting path id: path33)


(Start cutting path id: path27)
(Change tool to Default tool)

G00 Z0.100000
G00 X29.005643 Y39.823785

G01 Z-1.000000 F100.0(Penetrate)
G01 X29.010372 Y39.847231 Z-1.000000 F200.000000
G01 X29.039885 Y39.848198 Z-1.000000
G03 X29.104152 Y39.841790 Z-1.000000 I0.038699 J0.062652
G03 X29.149726 Y39.888888 Z-1.000000 I-0.026305 J0.071053
G01 X29.181392 Y39.904778 Z-1.000000
G02 X29.223657 Y39.864476 Z-1.000000 I-0.021375 J-0.064728
G02 X29.162184 Y39.754562 Z-1.000000 I-0.076507 J-0.029358
G02 X29.005643 Y39.823785 Z-1.000000 I-0.027773 J0.148807
G01 X29.005643 Y39.823785 Z-1.000000
G00 Z0.100000

(End cutting path id: path27)


(Start cutting path id: path27)
(Change tool to Default tool)

G00 Z0.100000
G00 X30.053418 Y39.609838

G01 Z-1.000000 F100.0(Penetrate)
G02 X30.078282 Y39.673964 Z-1.000000 I0.095124 J0.000000 F200.000000
G01 X30.116862 Y39.679350 Z-1.000000
G02 X30.148883 Y39.632722 Z-1.000000 I-0.036828 J-0.059600
G02 X30.137351 Y39.570629 Z-1.000000 I-0.085846 J-0.016175
G01 X30.087799 Y39.555838 Z-1.000000
G02 X30.053424 Y39.609838 Z-1.000000 I0.025228 J0.054001
G01 X30.053418 Y39.609838 Z-1.000000
G00 Z0.100000

(End cutting path id: path27)


(Start cutting path id: path27)
(Change tool to Default tool)

G00 Z0.100000
G00 X30.327214 Y39.977337

G01 Z-1.000000 F100.0(Penetrate)
G01 X30.336925 Y40.000785 Z-1.000000 F200.000000
G02 X30.457888 Y40.108011 Z-1.000000 I0.949968 J-0.949826
G01 X30.484480 Y40.106410 Z-1.000000
G01 X30.486082 Y40.079817 Z-1.000000
G02 X30.356308 Y39.961481 Z-1.000000 I-0.417157 J0.327153
G01 X30.327216 Y39.977334 Z-1.000000
G01 X30.327214 Y39.977337 Z-1.000000
G00 Z0.100000

(End cutting path id: path27)


(Start cutting path id: path27)
(Change tool to Default tool)

G00 Z0.100000
G00 X30.625898 Y41.591913

G01 Z-1.000000 F100.0(Penetrate)
G02 X30.586778 Y41.643306 Z-1.000000 I0.051621 J0.079878 F200.000000
G01 X30.602812 Y41.665441 Z-1.000000
G02 X30.680541 Y41.646158 Z-1.000000 I0.001834 J-0.158911
G02 X30.737895 Y41.591913 Z-1.000000 I-0.073417 J-0.135068
G01 X30.722074 Y41.563537 Z-1.000000
G02 X30.625886 Y41.591913 Z-1.000000 I0.000000 J0.177215
G01 X30.625898 Y41.591913 Z-1.000000
G00 Z0.100000

(End cutting path id: path27)


(Start cutting path id: path27)
(Change tool to Default tool)

G00 Z0.100000
G00 X30.756572 Y41.827436

G01 Z-1.000000 F100.0(Penetrate)
G02 X30.444881 Y42.075853 Z-1.000000 I0.996859 J1.570518 F200.000000
G02 X30.403459 Y42.176929 Z-1.000000 I0.098288 J0.099306
G02 X30.421236 Y42.298407 Z-1.000000 I0.463107 J-0.005732
G02 X30.582924 Y42.805322 Z-1.000000 I8.383595 J-2.394821
G03 X30.729348 Y43.287640 Z-1.000000 I-5.337445 J1.883750
G01 X30.712024 Y43.310497 Z-1.000000
G01 X30.704550 Y43.323750 Z-1.000000
G02 X30.744332 Y43.366501 Z-1.000000 I0.112611 J-0.064905
G03 X30.811281 Y43.434399 Z-1.000000 I-0.135999 J0.201054
G03 X31.098781 Y43.906722 Z-1.000000 I-6.825551 J4.478322
G02 X31.384786 Y44.383355 Z-1.000000 I8.788801 J-4.949618
G02 X31.527660 Y44.578764 Z-1.000000 I1.612514 J-1.029062
G01 X31.683190 Y44.765443 Z-1.000000
G01 X31.642694 Y43.943513 Z-1.000000
G02 X31.363415 Y41.746251 Z-1.000000 I-14.343804 J0.706758
G02 X31.158206 Y41.597109 Z-1.000000 I-0.184486 J0.038092
G02 X31.114448 Y41.611383 Z-1.000000 I0.012380 J0.112157
G02 X30.756572 Y41.827436 Z-1.000000 I4.638868 J8.088366
G01 X30.756572 Y41.827436 Z-1.000000
G00 Z0.100000

(End cutting path id: path27)


(Start cutting path id: path23)
(Change tool to Default tool)

G00 Z0.100000
G00 X30.786296 Y41.868254

G01 Z-1.000000 F100.0(Penetrate)
G02 X30.554316 Y42.107990 Z-1.000000 I0.335571 J0.556818 F200.000000
G02 X30.506329 Y42.369371 Z-1.000000 I0.360165 J0.201219
G02 X30.804861 Y43.355666 Z-1.000000 I3.466628 J-0.510954
G02 X31.514017 Y44.501585 Z-1.000000 I5.418025 J-2.560572
G01 X31.658981 Y44.685757 Z-1.000000
G01 X31.619780 Y43.904216 Z-1.000000
G02 X31.435560 Y42.213162 Z-1.000000 I-14.556546 J0.730199
G02 X31.253439 Y41.729663 Z-1.000000 I-1.325839 J0.223359
G02 X31.171441 Y41.698385 Z-1.000000 I-0.061451 J0.037977
G02 X30.786296 Y41.868254 Z-1.000000 I0.472705 J1.593323
G01 X30.786296 Y41.868254 Z-1.000000
G00 Z0.100000

(End cutting path id: path23)


(Start cutting path id: path25)
(Change tool to Default tool)

G00 Z0.100000
G00 X30.811781 Y41.829299

G01 Z-1.000000 F100.0(Penetrate)
G02 X30.439884 Y42.059868 Z-1.000000 I43.520070 J70.611068 F200.000000
G02 X30.423302 Y42.071570 Z-1.000000 I0.094382 J0.151340
G01 X30.417578 Y42.087618 Z-1.000000
G02 X30.510650 Y42.475681 Z-1.000000 I8.659319 J-1.871627
G02 X30.952599 Y43.662784 Z-1.000000 I6.228900 J-1.643155
G02 X31.484438 Y44.466759 Z-1.000000 I3.351378 J-1.639078
G01 X31.678539 Y44.690773 Z-1.000000
G01 X31.631320 Y43.869387 Z-1.000000
G02 X31.443394 Y42.257306 Z-1.000000 I-13.827539 J0.794931
G02 X31.252160 Y41.720861 Z-1.000000 I-1.679387 J0.296365
G02 X31.162928 Y41.682123 Z-1.000000 I-0.070041 J0.039197
G02 X30.811781 Y41.829299 Z-1.000000 I0.293997 J1.193936
G01 X30.811781 Y41.829299 Z-1.000000
G00 Z0.100000

(End cutting path id: path25)


(Start cutting path id: path27)
(Change tool to Default tool)

G00 Z0.100000
G00 X30.277432 Y41.849986

G01 Z-1.000000 F100.0(Penetrate)
G02 X30.302296 Y41.914111 Z-1.000000 I0.095124 J0.000000 F200.000000
G01 X30.340876 Y41.919497 Z-1.000000
G02 X30.372897 Y41.872869 Z-1.000000 I-0.036828 J-0.059600
G02 X30.361365 Y41.810777 Z-1.000000 I-0.085846 J-0.016175
G01 X30.311813 Y41.795985 Z-1.000000
G02 X30.277438 Y41.849986 Z-1.000000 I0.025228 J0.054001
G01 X30.277432 Y41.849986 Z-1.000000
G00 Z0.100000

(End cutting path id: path27)


(Start cutting path id: path27)
(Change tool to Default tool)

G00 Z0.100000
G00 X29.485915 Y43.990669

G01 Z-1.000000 F100.0(Penetrate)
G02 X29.578071 Y44.050583 Z-1.000000 I0.184821 J-0.183452 F200.000000
G01 X29.619812 Y44.041653 Z-1.000000
G01 X29.619871 Y44.008771 Z-1.000000
G02 X29.527717 Y43.948870 Z-1.000000 I-0.184845 J0.183531
G01 X29.485977 Y43.957800 Z-1.000000
G01 X29.485915 Y43.990669 Z-1.000000
G01 X29.485915 Y43.990669 Z-1.000000
G00 Z0.100000

(End cutting path id: path27)


(Start cutting path id: path27)
(Change tool to Default tool)

G00 Z0.100000
G00 X32.568495 Y39.407778

G01 Z-1.000000 F100.0(Penetrate)
G02 X32.593247 Y39.466231 Z-1.000000 I0.082876 J-0.000627 F200.000000
G01 X32.625369 Y39.463780 Z-1.000000
G03 X32.684992 Y39.392814 Z-1.000000 I0.644769 J0.481184
G03 X32.748677 Y39.333105 Z-1.000000 I0.518884 J0.489625
G01 X32.750054 Y39.300968 Z-1.000000
G02 X32.691804 Y39.277104 Z-1.000000 I-0.058250 J0.059161
G02 X32.605084 Y39.314506 Z-1.000000 I0.000000 J0.119234
G02 X32.568495 Y39.407778 Z-1.000000 I0.097601 J0.092099
G01 X32.568495 Y39.407778 Z-1.000000
G00 Z0.100000

(End cutting path id: path27)


(Start cutting path id: path27)
(Change tool to Default tool)

G00 Z0.100000
G00 X33.310170 Y38.414238

G01 Z-1.000000 F100.0(Penetrate)
G02 X33.493080 Y38.596655 Z-1.000000 I2.891552 J-2.716448 F200.000000
G01 X33.514391 Y38.605062 Z-1.000000
G02 X33.564290 Y38.501088 Z-1.000000 I0.000000 J-0.063960
G02 X33.242755 Y38.266336 Z-1.000000 I-0.594567 J0.476791
G01 X33.224187 Y38.286074 Z-1.000000
G02 X33.310170 Y38.414238 Z-1.000000 I0.431985 J-0.196885
G01 X33.310170 Y38.414238 Z-1.000000
G00 Z0.100000

(End cutting path id: path27)


(Start cutting path id: path27)
(Change tool to Default tool)

G00 Z0.100000
G00 X33.281530 Y37.239090

G01 Z-1.000000 F100.0(Penetrate)
G01 X33.290461 Y37.280828 Z-1.000000 F200.000000
G01 X33.323330 Y37.280890 Z-1.000000
G02 X33.383246 Y37.188733 Z-1.000000 I-0.183443 J-0.184823
G01 X33.374316 Y37.146995 Z-1.000000
G01 X33.341434 Y37.146936 Z-1.000000
G02 X33.281530 Y37.239090 Z-1.000000 I0.183543 J0.184860
G01 X33.281530 Y37.239090 Z-1.000000
G00 Z0.100000

(End cutting path id: path27)


(Start cutting path id: path27)
(Change tool to Default tool)

G00 Z0.100000
G00 X31.248158 Y37.435212

G01 Z-1.000000 F100.0(Penetrate)
G02 X31.277145 Y37.505788 Z-1.000000 I0.100413 J0.000000 F200.000000
G02 X31.346535 Y37.534774 Z-1.000000 I0.069391 J-0.068565
G01 X31.381434 Y37.504961 Z-1.000000
G02 X31.362283 Y37.435212 Z-1.000000 I-0.086669 J-0.013707
G02 X31.277072 Y37.341149 Z-1.000000 I-1.127006 J0.935329
G01 X31.263906 Y37.335649 Z-1.000000
G01 X31.255411 Y37.342907 Z-1.000000
G02 X31.248158 Y37.435212 Z-1.000000 I0.583737 J0.092305
G01 X31.248158 Y37.435212 Z-1.000000
G00 Z0.100000

(End cutting path id: path27)


(Start cutting path id: path27)
(Change tool to Default tool)

G00 Z0.100000
G00 X31.485146 Y35.916040

G01 Z-1.000000 F100.0(Penetrate)
G01 X31.494285 Y35.944492 Z-1.000000 F200.000000
G02 X31.555411 Y35.945386 Z-1.000000 I0.031679 J-0.075853
G02 X31.625065 Y35.879128 Z-1.000000 I-0.044857 J-0.116896
G01 X31.601032 Y35.842222 Z-1.000000
G02 X31.540590 Y35.859838 Z-1.000000 I-0.000000 J0.112504
G02 X31.485146 Y35.916040 Z-1.000000 I0.095042 J0.149208
G01 X31.485146 Y35.916040 Z-1.000000
G00 Z0.100000

(End cutting path id: path27)


(Start cutting path id: path27)
(Change tool to Default tool)

G00 Z0.100000
G00 X31.278026 Y35.702147

G01 Z-1.000000 F100.0(Penetrate)
G02 X31.370182 Y35.762061 Z-1.000000 I0.184821 J-0.183452 F200.000000
G01 X31.411923 Y35.753131 Z-1.000000
G01 X31.411982 Y35.720249 Z-1.000000
G02 X31.319829 Y35.660344 Z-1.000000 I-0.184860 J0.183543
G01 X31.278087 Y35.669276 Z-1.000000
G01 X31.278026 Y35.702147 Z-1.000000
G01 X31.278026 Y35.702147 Z-1.000000
G00 Z0.100000

(End cutting path id: path27)


(Start cutting path id: path27)
(Change tool to Default tool)

G00 Z0.100000
G00 X25.971426 Y39.320044

G01 Z-1.000000 F100.0(Penetrate)
G03 X25.968308 Y39.718188 Z-1.000000 I-0.508430 J0.195103 F200.000000
G03 X25.615843 Y40.204991 Z-1.000000 I-1.151365 J-0.462632
G03 X25.366607 Y40.340033 Z-1.000000 I-0.452712 J-0.538017
G03 X24.980142 Y40.397173 Z-1.000000 I-0.386465 J-1.278347
G03 X24.646471 Y40.236472 Z-1.000000 I-0.000000 J-0.426758
G03 X24.573948 Y39.887751 Z-1.000000 I0.308627 J-0.246087
G03 X24.909914 Y39.400030 Z-1.000000 I0.856996 J0.230765
G03 X25.518987 Y39.202431 Z-1.000000 I0.609073 J0.839896
G03 X25.893391 Y39.250300 Z-1.000000 I-0.000000 J1.488121
G03 X25.971426 Y39.320044 Z-1.000000 I-0.028787 J0.110736
G01 X25.971426 Y39.320044 Z-1.000000
G00 Z0.100000

(End cutting path id: path27)


(Start cutting path id: path29)
(Change tool to Default tool)

G00 Z0.100000
G00 X25.971426 Y39.320044

G01 Z-1.000000 F100.0(Penetrate)
G03 X25.974593 Y39.696742 Z-1.000000 I-0.501860 J0.192582 F200.000000
G03 X25.660490 Y40.172939 Z-1.000000 I-1.158112 J-0.422208
G03 X25.448893 Y40.298816 Z-1.000000 I-0.390544 J-0.415715
G03 X25.025599 Y40.382712 Z-1.000000 I-0.549711 J-1.663733
G03 X24.658643 Y40.236377 Z-1.000000 I-0.032650 J-0.451389
G03 X24.573948 Y39.887751 Z-1.000000 I0.275705 J-0.251581
G03 X24.909914 Y39.400030 Z-1.000000 I0.856996 J0.230765
G03 X25.518987 Y39.202431 Z-1.000000 I0.609073 J0.839896
G03 X25.893391 Y39.250300 Z-1.000000 I-0.000000 J1.488121
G03 X25.971426 Y39.320044 Z-1.000000 I-0.028787 J0.110736
G01 X25.971426 Y39.320044 Z-1.000000
G00 Z0.100000

(End cutting path id: path29)


(Start cutting path id: path33)
(Change tool to Default tool)

G00 Z0.100000
G00 X25.910920 Y39.268920

G01 Z-1.000000 F100.0(Penetrate)
G03 X25.965300 Y39.352683 Z-1.000000 I-0.064082 J0.101136 F200.000000
G03 X25.957131 Y39.584032 Z-1.000000 I-0.636505 J0.093343
G03 X25.600725 Y40.176071 Z-1.000000 I-1.054754 J-0.231662
G03 X24.998030 Y40.397173 Z-1.000000 I-0.602694 J-0.710878
G03 X24.658679 Y40.272663 Z-1.000000 I-0.000000 J-0.524705
G03 X24.575183 Y40.038613 Z-1.000000 I0.160377 J-0.189131
G03 X24.756522 Y39.559975 Z-1.000000 I1.405782 J0.258930
G03 X25.008760 Y39.318831 Z-1.000000 I0.569147 J0.342838
G03 X25.532472 Y39.170365 Z-1.000000 I0.592314 J1.091461
G03 X25.910920 Y39.268920 Z-1.000000 I0.035406 J0.639936
G01 X25.910920 Y39.268920 Z-1.000000
G00 Z0.100000

(End cutting path id: path33)


(Start cutting path id: path31)
(Change tool to Default tool)

G00 Z0.100000
G00 X25.908368 Y39.267342

G01 Z-1.000000 F100.0(Penetrate)
G03 X26.012448 Y39.526100 Z-1.000000 I-0.127925 J0.201766 F200.000000
G03 X25.698453 Y40.121868 Z-1.000000 I-1.352664 J-0.332282
G03 X25.464615 Y40.285309 Z-1.000000 I-0.463484 J-0.414119
G03 X25.046178 Y40.381222 Z-1.000000 I-0.519962 J-1.307709
G03 X24.615913 Y40.375822 Z-1.000000 I-0.183359 J-2.534131
G03 X24.546373 Y40.332511 Z-1.000000 I0.008972 J-0.091887
G03 X24.510706 Y39.991264 Z-1.000000 I0.335902 J-0.207596
G03 X24.876519 Y39.414645 Z-1.000000 I1.471856 J0.529415
G03 X25.113664 Y39.262888 Z-1.000000 I0.464170 J0.464174
G03 X25.449167 Y39.203574 Z-1.000000 I0.332455 J0.901965
G03 X25.802636 Y39.228549 Z-1.000000 I-0.007458 J2.619342
G03 X25.908368 Y39.267342 Z-1.000000 I-0.036635 J0.263334
G01 X25.908368 Y39.267342 Z-1.000000
G00 Z0.100000

(End cutting path id: path31)


(Start cutting path id: path25)
(Change tool to Default tool)

G00 Z0.100000
G00 X25.902938 Y39.243661

G01 Z-1.000000 F100.0(Penetrate)
G03 X26.006090 Y39.389743 Z-1.000000 I-0.043098 J0.139892 F200.000000
G03 X25.874201 Y39.922481 Z-1.000000 I-1.377427 J-0.058311
G03 X25.554494 Y40.247806 Z-1.000000 I-0.629189 J-0.298569
G03 X24.917252 Y40.397173 Z-1.000000 I-0.637242 J-1.284639
G03 X24.625387 Y40.250806 Z-1.000000 I0.000000 J-0.364181
G03 X24.546269 Y39.900067 Z-1.000000 I0.353927 J-0.264130
G03 X25.001354 Y39.312217 Z-1.000000 I0.818736 J0.163748
G03 X25.902938 Y39.243661 Z-1.000000 I0.537941 J1.111822
G01 X25.902938 Y39.243661 Z-1.000000
G00 Z0.100000

(End cutting path id: path25)


(Start cutting path id: path35)
(Change tool to Default tool)

G00 Z0.100000
G00 X25.803492 Y39.247756

G01 Z-1.000000 F100.0(Penetrate)
G03 X25.940034 Y39.454510 Z-1.000000 I-0.076312 J0.198860 F200.000000
G03 X25.775555 Y40.001080 Z-1.000000 I-1.129580 J-0.041890
G03 X25.020572 Y40.507576 Z-1.000000 I-0.926292 J-0.564795
G03 X24.590827 Y40.190530 Z-1.000000 I-0.059111 J-0.369653
G03 X24.919239 Y39.378878 Z-1.000000 I0.864072 J-0.122645
G03 X25.803492 Y39.247756 Z-1.000000 I0.558345 J0.718186
G01 X25.803492 Y39.247756 Z-1.000000
G00 Z0.100000

(End cutting path id: path35)


(Start cutting path id: path23)
(Change tool to Default tool)

G00 Z0.100000
G00 X25.804738 Y39.200582

G01 Z-1.000000 F100.0(Penetrate)
G03 X25.945613 Y39.308346 Z-1.000000 I-0.110337 J0.290200 F200.000000
G03 X25.996278 Y39.464330 Z-1.000000 I-0.214787 J0.155984
G03 X25.903284 Y39.925537 Z-1.000000 I-1.190184 J0.000000
G03 X25.670459 Y40.239437 Z-1.000000 I-0.757065 J-0.318234
G03 X25.280776 Y40.421412 Z-1.000000 I-0.543197 J-0.654980
G03 X24.700033 Y40.417434 Z-1.000000 I-0.279931 J-1.526169
G03 X24.574669 Y40.312056 Z-1.000000 I0.032880 J-0.166374
G03 X24.537024 Y39.994535 Z-1.000000 I0.603204 J-0.232509
G03 X24.722101 Y39.514455 Z-1.000000 I1.090396 J0.144646
G03 X25.062886 Y39.232487 Z-1.000000 I0.669038 J0.461678
G03 X25.447078 Y39.142802 Z-1.000000 I0.429941 J0.974027
G03 X25.804738 Y39.200582 Z-1.000000 I0.038580 J0.897032
G01 X25.804738 Y39.200582 Z-1.000000
G00 Z0.100000

(End cutting path id: path23)


(Start cutting path id: path31)
(Change tool to Default tool)

G00 Z0.100000
G00 X25.104017 Y39.608551

G01 Z-1.000000 F100.0(Penetrate)
G02 X25.048490 Y39.732193 Z-1.000000 I0.195074 J0.161898 F200.000000
G02 X25.057152 Y39.915547 Z-1.000000 I0.459633 J0.070166
G02 X25.148488 Y40.045644 Z-1.000000 I0.215288 J-0.054034
G02 X25.308172 Y40.084528 Z-1.000000 I0.132506 J-0.196838
G02 X25.445897 Y40.003201 Z-1.000000 I-0.022533 J-0.195439
G02 X25.510914 Y39.799802 Z-1.000000 I-0.285649 J-0.203399
G02 X25.456044 Y39.586040 Z-1.000000 I-0.443817 J0.000000
G02 X25.355037 Y39.516180 Z-1.000000 I-0.120446 J0.066196
G02 X25.213521 Y39.531143 Z-1.000000 I-0.041118 J0.287804
G02 X25.104017 Y39.608551 Z-1.000000 I0.089150 J0.242271
G01 X25.104017 Y39.608551 Z-1.000000
G00 Z0.100000

(End cutting path id: path31)


(Start cutting path id: path33)
(Change tool to Default tool)

G00 Z0.100000
G00 X25.103633 Y39.609014

G01 Z-1.000000 F100.0(Penetrate)
G02 X25.047572 Y39.909580 Z-1.000000 I0.241697 J0.200592 F200.000000
G02 X25.263210 Y40.084293 Z-1.000000 I0.245337 J-0.082373
G02 X25.506862 Y39.971860 Z-1.000000 I0.029597 J-0.256084
G02 X25.541832 Y39.669128 Z-1.000000 I-0.276083 J-0.185278
G02 X25.347482 Y39.514189 Z-1.000000 I-0.227383 J0.085860
G02 X25.103633 Y39.609014 Z-1.000000 I-0.036602 J0.266824
G01 X25.103633 Y39.609014 Z-1.000000
G00 Z0.100000

(End cutting path id: path33)


(Start cutting path id: path29)
(Change tool to Default tool)

G00 Z0.100000
G00 X25.103199 Y39.609536

G01 Z-1.000000 F100.0(Penetrate)
G02 X25.087536 Y39.970969 Z-1.000000 I0.230177 J0.191031 F200.000000
G02 X25.426093 Y40.075378 Z-1.000000 I0.235779 J-0.163428
G02 X25.596541 Y39.746810 Z-1.000000 I-0.099893 J-0.260315
G02 X25.281109 Y39.501118 Z-1.000000 I-0.315432 J0.079638
G02 X25.203420 Y39.522924 Z-1.000000 I-0.000000 J0.149292
G02 X25.103199 Y39.609536 Z-1.000000 I0.209344 J0.343528
G01 X25.103199 Y39.609536 Z-1.000000
G00 Z0.100000

(End cutting path id: path29)


(Start cutting path id: path35)
(Change tool to Default tool)

G00 Z0.100000
G00 X25.054638 Y39.607693

G01 Z-1.000000 F100.0(Penetrate)
G02 X25.038050 Y39.917580 Z-1.000000 I0.470575 J0.180576 F200.000000
G02 X25.192523 Y40.127160 Z-1.000000 I0.342897 J-0.091017
G02 X25.314954 Y40.144769 Z-1.000000 I0.081088 J-0.129361
G02 X25.485969 Y40.044613 Z-1.000000 I-0.106137 J-0.377307
G02 X25.582205 Y39.868582 Z-1.000000 I-0.252203 J-0.252201
G02 X25.563279 Y39.690960 Z-1.000000 I-0.276233 J-0.060386
G02 X25.282967 Y39.476639 Z-1.000000 I-0.340819 J0.155288
G02 X25.054638 Y39.607693 Z-1.000000 I-0.033682 J0.205747
G01 X25.054638 Y39.607693 Z-1.000000
G00 Z0.100000

(End cutting path id: path35)


(Start cutting path id: path25)
(Change tool to Default tool)

G00 Z0.100000
G00 X25.108690 Y39.663585

G01 Z-1.000000 F100.0(Penetrate)
G02 X25.212632 Y39.991237 Z-1.000000 I0.259596 J0.097961 F200.000000
G02 X25.502529 Y39.930477 Z-1.000000 I0.115571 J-0.170543
G02 X25.540247 Y39.799802 Z-1.000000 I-0.207501 J-0.130675
G02 X25.502529 Y39.669128 Z-1.000000 I-0.245219 J-0.000000
G02 X25.282149 Y39.545445 Z-1.000000 I-0.224101 J0.141127
G02 X25.108690 Y39.663596 Z-1.000000 I-0.002567 J0.182635
G01 X25.108690 Y39.663585 Z-1.000000
G00 Z0.100000

(End cutting path id: path25)


(Start cutting path id: path27)
(Change tool to Default tool)

G00 Z0.100000
G00 X25.087643 Y39.685584

G01 Z-1.000000 F100.0(Penetrate)
G02 X25.111469 Y39.975073 Z-1.000000 I0.270897 J0.123429 F200.000000
G02 X25.355037 Y40.083421 Z-1.000000 I0.208102 J-0.139869
G02 X25.588714 Y39.774190 Z-1.000000 I-0.038906 J-0.272307
G02 X25.276156 Y39.501118 Z-1.000000 I-0.312557 J0.042340
G02 X25.193404 Y39.534870 Z-1.000000 I0.000000 J0.118320
G02 X25.087643 Y39.685584 Z-1.000000 I0.351228 J0.358933
G01 X25.087643 Y39.685584 Z-1.000000
G00 Z0.100000

(End cutting path id: path27)


(Start cutting path id: path23)
(Change tool to Default tool)

G00 Z0.100000
G00 X25.130927 Y39.687627

G01 Z-1.000000 F100.0(Penetrate)
G02 X25.147806 Y40.004885 Z-1.000000 I0.522968 J0.131256 F200.000000
G02 X25.281929 Y40.098486 Z-1.000000 I0.134124 J-0.049294
G02 X25.487213 Y39.963023 Z-1.000000 I0.000000 J-0.223276
G02 X25.473579 Y39.650459 Z-1.000000 I-0.332170 J-0.142090
G02 X25.286813 Y39.551875 Z-1.000000 I-0.166412 J0.089061
G02 X25.130927 Y39.687627 Z-1.000000 I0.019500 J0.179771
G01 X25.130927 Y39.687627 Z-1.000000
G00 Z0.100000

(End cutting path id: path23)


(Footer)
M5
G00 X0.0000 Y0.0000
M2
(Using default footer. To add your own footer create file "footer" in the output dir.)
(end)
%