%
(Header)
(Generated by gcodetools from Inkscape.)
(Using default header. To add your own header create file "header" in the output dir.)
M3
(Header end.)
G21 (All units in mm)

(Start cutting path id: path40805)
(Change tool to Default tool)


G00 Z5.000000

G00 X22.930868 Y21.117698
M3S030
G01 Z-0.125000 F50.0(Penetrate)
G01 X20.246552 Y25.782892 Z-0.125000 F2000.000000
G03 X19.603722 Y25.493965 Z-0.125000 I88.089353 J-196.848345
G03 X18.967028 Y25.206295 Z-0.125000 I442.645791 J-980.548177
G03 X18.958071 Y25.215059 Z-0.125000 I-1.341867 J-1.362336
G02 X18.949133 Y25.223768 Z-0.125000 I3.927127 J4.039644
G02 X19.316122 Y25.783979 Z-0.125000 I4681.205290 J-3066.219053
G02 X19.696267 Y26.363857 Z-0.125000 I1083.130347 J-709.642135
G01 X14.864498 Y29.028435 Z-0.125000
G02 X15.301111 Y29.340141 Z-0.125000 I33.514080 J-46.482271
G03 X15.723479 Y29.639978 Z-0.125000 I-74.316744 J105.134290
G03 X16.153926 Y29.949322 Z-0.125000 I-142.514142 J198.759903
G02 X16.586934 Y30.251521 Z-0.125000 I10.354006 J-14.374508
G02 X16.684193 Y30.291681 Z-0.125000 I0.155669 J-0.239149
G02 X16.788257 Y30.295204 Z-0.125000 I0.062153 J-0.297204
G02 X18.477343 Y30.075130 Z-0.125000 I-45.196814 J-353.482157
G03 X20.166023 Y29.858384 Z-0.125000 I26.065042 J196.387214
G03 X21.036380 Y29.764989 Z-0.125000 I3.863776 J31.904677
G02 X21.906354 Y29.674924 Z-0.125000 I-4.122934 J-44.071994
G03 X22.120477 Y29.695693 Z-0.125000 I0.056318 J0.533533
G03 X22.313476 Y29.810333 Z-0.125000 I-0.140359 J0.456075
G02 X24.281450 Y31.732903 Z-0.125000 I308.152887 J-313.461961
G03 X26.245999 Y33.658684 Z-0.125000 I-198.174397 J204.128738
G03 X26.836405 Y34.281593 Z-0.125000 I-9.061992 J9.180397
G03 X27.395782 Y34.929819 Z-0.125000 I-23.928953 J21.214596
G03 X27.713876 Y35.398421 Z-0.125000 I-1.931207 J1.653199
G03 X27.892380 Y35.943232 Z-0.125000 I-1.515767 J0.798280
G03 X27.859739 Y36.433787 Z-0.125000 I-1.099301 J0.173216
G03 X27.655265 Y36.878018 Z-0.125000 I-1.653610 J-0.491960
G03 X27.087989 Y37.537906 Z-0.125000 I-2.587152 J-1.650285
G03 X26.402584 Y38.079263 Z-0.125000 I-5.757834 J-6.585350
G03 X25.059552 Y38.872569 Z-0.125000 I-5.568119 J-7.893075
G03 X23.642213 Y39.520756 Z-0.125000 I-14.333835 J-29.469014
G03 X20.334088 Y40.841362 Z-0.125000 I-26.641096 J-61.932294
G03 X16.971686 Y42.045553 Z-0.125000 I-65.091157 J-176.454355
G03 X15.986930 Y42.381530 Z-0.125000 I-29.088193 J-83.647011
G02 X15.003187 Y42.713882 Z-0.125000 I57.106125 J170.653252
G02 X14.980433 Y42.723969 Z-0.125000 I0.016683 J0.068343
G03 X14.945027 Y42.744459 Z-0.125000 I-0.162852 J-0.240561
G02 X15.228786 Y43.038568 Z-0.125000 I31.941242 J-30.533242
G02 X15.504260 Y43.321056 Z-0.125000 I198.164434 J-192.968104
G02 X15.695344 Y43.512038 Z-0.125000 I4.282796 J-4.094006
G03 X15.880064 Y43.709823 Z-0.125000 I-1.634308 J1.711507
G02 X16.679784 Y44.226126 Z-0.125000 I1.279985 J-1.105104
G02 X17.598027 Y44.303893 Z-0.125000 I0.647569 J-2.186236
G02 X19.250724 Y44.090994 Z-0.125000 I-9.737429 J-82.111259
G03 X20.904210 Y43.871444 Z-0.125000 I18.582833 J133.616036
G03 X21.002478 Y43.881569 Z-0.125000 I0.029454 J0.196080
G03 X21.083164 Y43.932599 Z-0.125000 I-0.079654 J0.215246
G03 X21.827572 Y44.638659 Z-0.125000 I-91.202167 J96.901009
G03 X22.568486 Y45.347883 Z-0.125000 I-487.326301 J509.843107
G02 X22.649486 Y45.423656 Z-0.125000 I1.812113 J-1.855945
G02 X22.734018 Y45.496400 Z-0.125000 I1.851825 J-2.066419
G02 X23.306121 Y45.664691 Z-0.125000 I0.487467 J-0.600562
G02 X23.816693 Y45.369724 Z-0.125000 I-0.080150 J-0.728105
G02 X23.927169 Y45.184427 Z-0.125000 I-0.824896 J-0.617392
G02 X24.004595 Y44.976589 Z-0.125000 I-1.323468 J-0.611377
G02 X24.014038 Y44.718820 Z-0.125000 I-0.504136 J-0.147524
G02 X23.883801 Y44.469882 Z-0.125000 I-0.513880 J0.110310
G03 X23.506301 Y44.047770 Z-0.125000 I11.215991 J-10.410452
G02 X23.109823 Y43.591882 Z-0.125000 I-49.208725 J42.395636
G02 X23.515411 Y43.518305 Z-0.125000 I-6.905765 J-39.222531
G02 X23.888275 Y43.447733 Z-0.125000 I-14.340405 J-76.786313
G02 X25.169452 Y43.217417 Z-0.125000 I-138.841931 J-776.014104
G02 X26.451797 Y42.980339 Z-0.125000 I-28.137618 J-155.782362
G03 X26.584957 Y42.990681 Z-0.125000 I0.048473 J0.238305
G03 X26.688911 Y43.063334 Z-0.125000 I-0.087784 J0.236302
G03 X27.264881 Y43.725507 Z-0.125000 I-256.009201 J223.262937
G02 X27.852115 Y44.382519 Z-0.125000 I22.516993 J-19.534644
G02 X28.102718 Y44.618777 Z-0.125000 I2.138704 J-2.017526
G02 X28.384504 Y44.819335 Z-0.125000 I1.411226 J-1.684550
G02 X28.931215 Y44.956616 Z-0.125000 I0.487092 J-0.782555
G02 X29.337437 Y44.775654 Z-0.125000 I-0.041446 J-0.639463
G02 X29.573915 Y44.310832 Z-0.125000 I-0.548478 J-0.571604
G02 X29.462705 Y43.762241 Z-0.125000 I-0.842992 J-0.114677
G02 X29.301528 Y43.532839 Z-0.125000 I-1.412385 J0.821016
G03 X29.122691 Y43.312320 Z-0.125000 I6.403575 J-5.375945
G02 X28.897877 Y43.030984 Z-0.125000 I-30.025586 J23.762877
G02 X28.648462 Y42.722618 Z-0.125000 I-127.868470 J103.168363
G03 X28.935505 Y42.685022 Z-0.125000 I8.987285 J67.501807
G03 X29.189799 Y42.652727 Z-0.125000 I9.137834 J70.936405
G02 X31.462314 Y42.363908 Z-0.125000 I-399.922839 J-3155.785282
G02 X33.735242 Y42.071762 Z-0.125000 I-137.089156 J-1075.559626
G03 X33.867192 Y42.083965 Z-0.125000 I0.038548 J0.302677
G03 X33.981305 Y42.150389 Z-0.125000 I-0.094278 J0.293195
G02 X35.896063 Y43.911223 Z-0.125000 I835.877684 J-907.024575
G02 X37.819877 Y45.658022 Z-0.125000 I166.366089 J-181.292321
G02 X38.722607 Y46.399425 Z-0.125000 I8.517254 J-9.450305
G02 X39.725742 Y47.025257 Z-0.125000 I4.223740 J-5.653292
G02 X40.137144 Y47.201426 Z-0.125000 I1.370028 J-2.630934
G02 X40.589196 Y47.282978 Z-0.125000 I0.494738 J-1.448721
G02 X41.475458 Y46.892089 Z-0.125000 I0.044702 J-1.098803
G02 X41.685296 Y45.972530 Z-0.125000 I-0.789108 J-0.663791
G02 X41.457223 Y45.396428 Z-0.125000 I-2.336929 J0.591968
G02 X41.130533 Y44.871753 Z-0.125000 I-5.294045 J2.932309
G02 X40.200373 Y43.690102 Z-0.125000 I-10.230767 J7.096435
G02 X39.175459 Y42.582837 Z-0.125000 I-28.902924 J25.725301
G02 X37.836096 Y41.208497 Z-0.125000 I-99.598049 J95.723524
G02 X36.486666 Y39.844000 Z-0.125000 I-1748.621712 J1727.963626
G03 X36.411553 Y39.717774 Z-0.125000 I0.227767 J-0.220998
G03 X36.401663 Y39.577542 Z-0.125000 I0.290729 J-0.090969
G02 X36.754345 Y37.105989 Z-0.125000 I-978.397804 J-140.875118
G02 X37.104059 Y34.628416 Z-0.125000 I-4920.360781 J-695.781140
G03 X37.114624 Y34.567540 Z-0.125000 I0.440686 J0.045124
G02 X37.135376 Y34.475530 Z-0.125000 I-2.313697 J-0.570191
G02 X37.296716 Y34.603940 Z-0.125000 I6.043741 J-7.428000
G03 X37.444073 Y34.720147 Z-0.125000 I-9.173134 J11.783617
G01 X38.209102 Y35.340426 Z-0.125000
G02 X38.653163 Y35.508795 Z-0.125000 I0.489811 J-0.622063
G02 X39.077035 Y35.392844 Z-0.125000 I0.039781 J-0.687304
G02 X39.324055 Y35.058867 Z-0.125000 I-0.353418 J-0.519739
G02 X39.296248 Y34.597838 Z-0.125000 I-0.625796 J-0.193608
G02 X39.124140 Y34.284273 Z-0.125000 I-1.855832 J0.814605
G02 X38.898078 Y34.012505 Z-0.125000 I-1.421159 J0.952240
G02 X38.173567 Y33.326949 Z-0.125000 I-17.195880 J17.447389
G03 X37.435125 Y32.654010 Z-0.125000 I209.610601 J-230.755406
G03 X37.364169 Y32.550464 Z-0.125000 I0.188831 J-0.205482
G03 X37.350121 Y32.418124 Z-0.125000 I0.233778 J-0.091731
G02 X37.653047 Y30.797976 Z-0.125000 I-222.511868 J-42.442356
G02 X37.949619 Y29.172580 Z-0.125000 I-1119.815924 J-205.163021
G03 X37.955949 Y29.155465 Z-0.125000 I0.340740 J0.116298
G03 X37.971988 Y29.120161 Z-0.125000 I0.384674 J0.153467
G02 X38.053038 Y29.175467 Z-0.125000 I0.871148 J-1.189609
G03 X38.128573 Y29.229368 Z-0.125000 I-0.458344 J0.722188
G03 X38.513267 Y29.521756 Z-0.125000 I-11.605837 J15.669030
G02 X38.911496 Y29.810333 Z-0.125000 I4.294685 J-5.507498
G02 X39.133125 Y29.936132 Z-0.125000 I1.033156 J-1.562054
G02 X39.376781 Y30.015634 Z-0.125000 I0.419453 J-0.872399
G02 X39.933834 Y29.857785 Z-0.125000 I0.129742 J-0.603989
G02 X40.119439 Y29.321102 Z-0.125000 I-0.430286 J-0.449246
G02 X39.928592 Y28.814273 Z-0.125000 I-1.238352 J0.176957
G02 X39.587055 Y28.395051 Z-0.125000 I-2.153797 J1.405947
G02 X38.901209 Y27.716128 Z-0.125000 I-120.787705 J121.333690
G02 X38.213577 Y27.045292 Z-0.125000 I-75.355165 J76.554024
G03 X38.145619 Y26.946696 Z-0.125000 I0.217125 J-0.222373
G03 X38.133047 Y26.831255 Z-0.125000 I0.179554 J-0.077958
G02 X38.342801 Y25.575127 Z-0.125000 I-173.824307 J-29.671528
G03 X38.549116 Y24.319559 Z-0.125000 I617.056140 J100.749815
G03 X38.625001 Y23.902613 Z-0.125000 I9.798820 J1.568036
G02 X38.687804 Y23.480873 Z-0.125000 I-3.901844 J-0.796580
G02 X38.637821 Y22.767717 Z-0.125000 I-2.121320 J-0.209654
G02 X38.303054 Y22.122371 Z-0.125000 I-1.485531 J0.361104
G02 X38.083508 Y21.911225 Z-0.125000 I-1.357249 J1.191533
G03 X37.846720 Y21.716136 Z-0.125000 I12.589458 J-15.521608
G02 X37.473310 Y21.399125 Z-0.125000 I-50.976291 J59.666891
G03 X37.086163 Y21.069647 Z-0.125000 I37.884550 J-44.907783
G03 X36.811548 Y21.831598 Z-0.125000 I-286.455757 J-102.811098
G03 X36.544826 Y22.567927 Z-0.125000 I-1308.609146 J-473.604283
G02 X34.848869 Y27.245686 Z-0.125000 I7378.462254 J2677.763570
G03 X33.149166 Y31.924524 Z-0.125000 I-2462.158328 J-891.791323
G03 X32.676159 Y32.792738 Z-0.125000 I-3.162103 J-1.159775
G03 X31.900959 Y33.453380 Z-0.125000 I-1.872704 J-1.412305
G03 X31.078533 Y33.700589 Z-0.125000 I-1.038734 J-1.964064
G03 X30.214313 Y33.571321 Z-0.125000 I-0.174677 J-1.785698
G03 X29.032829 Y32.977686 Z-0.125000 I3.568355 J-8.574481
G03 X27.968436 Y32.221559 Z-0.125000 I4.135953 J-6.949371
G03 X27.175890 Y31.500134 Z-0.125000 I9.923387 J-11.697715
G02 X26.398111 Y30.753857 Z-0.125000 I-43.445202 J44.500762
G03 X25.061847 Y29.499974 Z-0.125000 I958.119695 J-1022.407725
G02 X23.727215 Y28.250905 Z-0.125000 I-318.775855 J339.274745
G03 X23.642589 Y28.128179 Z-0.125000 I0.231260 J-0.250007
G03 X23.624317 Y27.988816 Z-0.125000 I0.260758 J-0.105067
G02 X23.790382 Y26.617420 Z-0.125000 I-490.158074 J-60.049990
G03 X23.959857 Y25.245610 Z-0.125000 I180.041138 J21.546077
G03 X24.112496 Y24.147231 Z-0.125000 I51.150095 J6.548418
G02 X24.268553 Y23.048422 Z-0.125000 I-70.761677 J-10.610335
G02 X24.253804 Y22.935438 Z-0.125000 I-0.222212 J-0.028446
G02 X24.192497 Y22.825647 Z-0.125000 I-0.477181 J0.194442
G02 X23.804740 Y22.280665 Z-0.125000 I-24.849805 J17.270309
G03 X23.409572 Y21.737978 Z-0.125000 I3659.362911 J-2665.051224
G02 X23.177108 Y21.437248 Z-0.125000 I-23.292145 J17.764549
G03 X22.930868 Y21.117698 Z-0.125000 I19.849332 J-15.550246
G01 X22.930868 Y21.117698 Z-0.125000
G00 Z5.000000

(End cutting path id: path40805)


(Footer)


M5
G00 X0.0000 Y0.0000
G4 S2 

M5
M2
(Using default footer. To add your own footer create file "footer" in the output dir.)
(end)
%